docs/couleurs/media/filmic-luts/3dl/filmic_to_sRGB-MediumHigh.3dl
3DMESH
Mesh 5 12
0 32 64 96 128 160 192 224 256 288 320 352 384 416 448 480 512 543 575 607 639 671 703 735 767 799 831 863 895 927 959 991 1023
0 0 0
0 0 87
0 0 171
0 0 276
0 0 400
0 0 539
0 0 689
0 0 847
0 0 1010
0 0 1174
0 0 1337
0 0 1497
0 0 1652
0 0 1801
0 0 1944
0 0 2080
0 0 2207
0 0 2328
0 0 2440
0 0 2546
0 0 2645
0 0 2737
0 0 2823
0 0 2903
0 0 2977
0 0 3046
0 0 3111
0 0 3171
0 0 3227
0 0 3279
0 0 3327
0 0 3373
0 0 3415
0 87 0
0 87 87
0 87 171
0 87 276
0 87 400
0 87 539
0 87 689
0 87 847
0 87 1010
0 87 1174
0 87 1337
0 87 1497
0 87 1652
0 87 1801
0 87 1944
0 87 2080
0 87 2207
0 87 2328
0 87 2440
0 87 2546
0 87 2645
0 87 2737
0 87 2823
0 87 2903
0 87 2977
0 87 3046
0 87 3111
0 87 3171
0 87 3227
0 87 3279
0 87 3327
0 87 3373
0 87 3415
0 171 0
0 171 87
0 171 171
0 171 276
0 171 400
0 171 539
0 171 689
0 171 847
0 171 1010
0 171 1174
0 171 1337
0 171 1497
0 171 1652
0 171 1801
0 171 1944
0 171 2080
0 171 2207
0 171 2328
0 171 2440
0 171 2546
0 171 2645
0 171 2737
0 171 2823
0 171 2903
0 171 2977
0 171 3046
0 171 3111
0 171 3171
0 171 3227
0 171 3279
0 171 3327
0 171 3373
0 171 3415
0 276 0
0 276 87
0 276 171
0 276 276
0 276 400
0 276 539
0 276 689
0 276 847
0 276 1010
0 276 1174
0 276 1337
0 276 1497
0 276 1652
0 276 1801
0 276 1944
0 276 2080
0 276 2207
0 276 2328
0 276 2440
0 276 2546
0 276 2645
0 276 2737
0 276 2823
0 276 2903
0 276 2977
0 276 3046
0 276 3111
0 276 3171
0 276 3227
0 276 3279
0 276 3327
0 276 3373
0 276 3415
0 400 0
0 400 87
0 400 171
0 400 276
0 400 400
0 400 539
0 400 689
0 400 847
0 400 1010
0 400 1174
0 400 1337
0 400 1497
0 400 1652
0 400 1801
0 400 1944
0 400 2080
0 400 2207
0 400 2328
0 400 2440
0 400 2546
0 400 2645
0 400 2737
0 400 2823
0 400 2903
0 400 2977
0 400 3046
0 400 3111
0 400 3171
0 400 3227
0 400 3279
0 400 3327
0 400 3373
0 400 3415
0 539 0
0 539 87
0 539 171
0 539 276
0 539 400
0 539 539
0 539 689
0 539 847
0 539 1010
0 539 1174
0 539 1337
0 539 1497
0 539 1652
0 539 1801
0 539 1944
0 539 2080
0 539 2207
0 539 2328
0 539 2440
0 539 2546
0 539 2645
0 539 2737
0 539 2823
0 539 2903
0 539 2977
0 539 3046
0 539 3111
0 539 3171
0 539 3227
0 539 3279
0 539 3327
0 539 3373
0 539 3415
0 689 0
0 689 87
0 689 171
0 689 276
0 689 400
0 689 539
0 689 689
0 689 847
0 689 1010
0 689 1174
0 689 1337
0 689 1497
0 689 1652
0 689 1801
0 689 1944
0 689 2080
0 689 2207
0 689 2328
0 689 2440
0 689 2546
0 689 2645
0 689 2737
0 689 2823
0 689 2903
0 689 2977
0 689 3046
0 689 3111
0 689 3171
0 689 3227
0 689 3279
0 689 3327
0 689 3373
0 689 3415
0 847 0
0 847 87
0 847 171
0 847 276
0 847 400
0 847 539
0 847 689
0 847 847
0 847 1010
0 847 1174
0 847 1337
0 847 1497
0 847 1652
0 847 1801
0 847 1944
0 847 2080
0 847 2207
0 847 2328
0 847 2440
0 847 2546
0 847 2645
0 847 2737
0 847 2823
0 847 2903
0 847 2977
0 847 3046
0 847 3111
0 847 3171
0 847 3227
0 847 3279
0 847 3327
0 847 3373
0 847 3415
0 1010 0
0 1010 87
0 1010 171
0 1010 276
0 1010 400
0 1010 539
0 1010 689
0 1010 847
0 1010 1010
0 1010 1174
0 1010 1337
0 1010 1497
0 1010 1652
0 1010 1801
0 1010 1944
0 1010 2080
0 1010 2207
0 1010 2328
0 1010 2440
0 1010 2546
0 1010 2645
0 1010 2737
0 1010 2823
0 1010 2903
0 1010 2977
0 1010 3046
0 1010 3111
0 1010 3171
0 1010 3227
0 1010 3279
0 1010 3327
0 1010 3373
0 1010 3415
0 1174 0
0 1174 87
0 1174 171
0 1174 276
0 1174 400
0 1174 539
0 1174 689
0 1174 847
0 1174 1010
0 1174 1174
0 1174 1337
0 1174 1497
0 1174 1652
0 1174 1801
0 1174 1944
0 1174 2080
0 1174 2207
0 1174 2328
0 1174 2440
0 1174 2546
0 1174 2645
0 1174 2737
0 1174 2823
0 1174 2903
0 1174 2977
0 1174 3046
0 1174 3111
0 1174 3171
0 1174 3227
0 1174 3279
0 1174 3327
0 1174 3373
0 1174 3415
0 1337 0
0 1337 87
0 1337 171
0 1337 276
0 1337 400
0 1337 539
0 1337 689
0 1337 847
0 1337 1010
0 1337 1174
0 1337 1337
0 1337 1497
0 1337 1652
0 1337 1801
0 1337 1944
0 1337 2080
0 1337 2207
0 1337 2328
0 1337 2440
0 1337 2546
0 1337 2645
0 1337 2737
0 1337 2823
0 1337 2903
0 1337 2977
0 1337 3046
0 1337 3111
0 1337 3171
0 1337 3227
0 1337 3279
0 1337 3327
0 1337 3373
0 1337 3415
0 1497 0
0 1497 87
0 1497 171
0 1497 276
0 1497 400
0 1497 539
0 1497 689
0 1497 847
0 1497 1010
0 1497 1174
0 1497 1337
0 1497 1497
0 1497 1652
0 1497 1801
0 1497 1944
0 1497 2080
0 1497 2207
0 1497 2328
0 1497 2440
0 1497 2546
0 1497 2645
0 1497 2737
0 1497 2823
0 1497 2903
0 1497 2977
0 1497 3046
0 1497 3111
0 1497 3171
0 1497 3227
0 1497 3279
0 1497 3327
0 1497 3373
0 1497 3415
0 1652 0
0 1652 87
0 1652 171
0 1652 276
0 1652 400
0 1652 539
0 1652 689
0 1652 847
0 1652 1010
0 1652 1174
0 1652 1337
0 1652 1497
0 1652 1652
0 1652 1801
0 1652 1944
0 1652 2080
0 1652 2207
0 1652 2328
0 1652 2440
0 1652 2546
0 1652 2645
0 1652 2737
0 1652 2823
0 1652 2903
0 1652 2977
0 1652 3046
0 1652 3111
0 1652 3171
0 1652 3227
0 1652 3279
0 1652 3327
0 1652 3373
0 1652 3415
0 1801 0
0 1801 87
0 1801 171
0 1801 276
0 1801 400
0 1801 539
0 1801 689
0 1801 847
0 1801 1010
0 1801 1174
0 1801 1337
0 1801 1497
0 1801 1652
0 1801 1801
0 1801 1944
0 1801 2080
0 1801 2207
0 1801 2328
0 1801 2440
0 1801 2546
0 1801 2645
0 1801 2737
0 1801 2823
0 1801 2903
0 1801 2977
0 1801 3046
0 1801 3111
0 1801 3171
0 1801 3227
0 1801 3279
0 1801 3327
0 1801 3373
0 1801 3415
0 1944 0
0 1944 87
0 1944 171
0 1944 276
0 1944 400
0 1944 539
0 1944 689
0 1944 847
0 1944 1010
0 1944 1174
0 1944 1337
0 1944 1497
0 1944 1652
0 1944 1801
0 1944 1944
0 1944 2080
0 1944 2207
0 1944 2328
0 1944 2440
0 1944 2546
0 1944 2645
0 1944 2737
0 1944 2823
0 1944 2903
0 1944 2977
0 1944 3046
0 1944 3111
0 1944 3171
0 1944 3227
0 1944 3279
0 1944 3327
0 1944 3373
0 1944 3415
0 2080 0
0 2080 87
0 2080 171
0 2080 276
0 2080 400
0 2080 539
0 2080 689
0 2080 847
0 2080 1010
0 2080 1174
0 2080 1337
0 2080 1497
0 2080 1652
0 2080 1801
0 2080 1944
0 2080 2080
0 2080 2207
0 2080 2328
0 2080 2440
0 2080 2546
0 2080 2645
0 2080 2737
0 2080 2823
0 2080 2903
0 2080 2977
0 2080 3046
0 2080 3111
0 2080 3171
0 2080 3227
0 2080 3279
0 2080 3327
0 2080 3373
0 2080 3415
0 2207 0
0 2207 87
0 2207 171
0 2207 276
0 2207 400
0 2207 539
0 2207 689
0 2207 847
0 2207 1010
0 2207 1174
0 2207 1337
0 2207 1497
0 2207 1652
0 2207 1801
0 2207 1944
0 2207 2080
0 2207 2207
0 2207 2328
0 2207 2440
0 2207 2546
0 2207 2645
0 2207 2737
0 2207 2823
0 2207 2903
0 2207 2977
0 2207 3046
0 2207 3111
0 2207 3171
0 2207 3227
0 2207 3279
0 2207 3327
0 2207 3373
0 2207 3415
0 2328 0
0 2328 87
0 2328 171
0 2328 276
0 2328 400
0 2328 539
0 2328 689
0 2328 847
0 2328 1010
0 2328 1174
0 2328 1337
0 2328 1497
0 2328 1652
0 2328 1801
0 2328 1944
0 2328 2080
0 2328 2207
0 2328 2328
0 2328 2440
0 2328 2546
0 2328 2645
0 2328 2737
0 2328 2823
0 2328 2903
0 2328 2977
0 2328 3046
0 2328 3111
0 2328 3171
0 2328 3227
0 2328 3279
0 2328 3327
0 2328 3373
0 2328 3415
0 2440 0
0 2440 87
0 2440 171
0 2440 276
0 2440 400
0 2440 539
0 2440 689
0 2440 847
0 2440 1010
0 2440 1174
0 2440 1337
0 2440 1497
0 2440 1652
0 2440 1801
0 2440 1944
0 2440 2080
0 2440 2207
0 2440 2328
0 2440 2440
0 2440 2546
0 2440 2645
0 2440 2737
0 2440 2823
0 2440 2903
0 2440 2977
0 2440 3046
0 2440 3111
0 2440 3171
0 2440 3227
0 2440 3279
0 2440 3327
0 2440 3373
0 2440 3415
0 2546 0
0 2546 87
0 2546 171
0 2546 276
0 2546 400
0 2546 539
0 2546 689
0 2546 847
0 2546 1010
0 2546 1174
0 2546 1337
0 2546 1497
0 2546 1652
0 2546 1801
0 2546 1944
0 2546 2080
0 2546 2207
0 2546 2328
0 2546 2440
0 2546 2546
0 2546 2645
0 2546 2737
0 2546 2823
0 2546 2903
0 2546 2977
0 2546 3046
0 2546 3111
0 2546 3171
0 2546 3227
0 2546 3279
0 2546 3327
0 2546 3373
0 2546 3415
0 2645 0
0 2645 87
0 2645 171
0 2645 276
0 2645 400
0 2645 539
0 2645 689
0 2645 847
0 2645 1010
0 2645 1174
0 2645 1337
0 2645 1497
0 2645 1652
0 2645 1801
0 2645 1944
0 2645 2080
0 2645 2207
0 2645 2328
0 2645 2440
0 2645 2546
0 2645 2645
0 2645 2737
0 2645 2823
0 2645 2903
0 2645 2977
0 2645 3046
0 2645 3111
0 2645 3171
0 2645 3227
0 2645 3279
0 2645 3327
0 2645 3373
0 2645 3415
0 2737 0
0 2737 87
0 2737 171
0 2737 276
0 2737 400
0 2737 539
0 2737 689
0 2737 847
0 2737 1010
0 2737 1174
0 2737 1337
0 2737 1497
0 2737 1652
0 2737 1801
0 2737 1944
0 2737 2080
0 2737 2207
0 2737 2328
0 2737 2440
0 2737 2546
0 2737 2645
0 2737 2737
0 2737 2823
0 2737 2903
0 2737 2977
0 2737 3046
0 2737 3111
0 2737 3171
0 2737 3227
0 2737 3279
0 2737 3327
0 2737 3373
0 2737 3415
0 2823 0
0 2823 87
0 2823 171
0 2823 276
0 2823 400
0 2823 539
0 2823 689
0 2823 847
0 2823 1010
0 2823 1174
0 2823 1337
0 2823 1497
0 2823 1652
0 2823 1801
0 2823 1944
0 2823 2080
0 2823 2207
0 2823 2328
0 2823 2440
0 2823 2546
0 2823 2645
0 2823 2737
0 2823 2823
0 2823 2903
0 2823 2977
0 2823 3046
0 2823 3111
0 2823 3171
0 2823 3227
0 2823 3279
0 2823 3327
0 2823 3373
0 2823 3415
0 2903 0
0 2903 87
0 2903 171
0 2903 276
0 2903 400
0 2903 539
0 2903 689
0 2903 847
0 2903 1010
0 2903 1174
0 2903 1337
0 2903 1497
0 2903 1652
0 2903 1801
0 2903 1944
0 2903 2080
0 2903 2207
0 2903 2328
0 2903 2440
0 2903 2546
0 2903 2645
0 2903 2737
0 2903 2823
0 2903 2903
0 2903 2977
0 2903 3046
0 2903 3111
0 2903 3171
0 2903 3227
0 2903 3279
0 2903 3327
0 2903 3373
0 2903 3415
0 2977 0
0 2977 87
0 2977 171
0 2977 276
0 2977 400
0 2977 539
0 2977 689
0 2977 847
0 2977 1010
0 2977 1174
0 2977 1337
0 2977 1497
0 2977 1652
0 2977 1801
0 2977 1944
0 2977 2080
0 2977 2207
0 2977 2328
0 2977 2440
0 2977 2546
0 2977 2645
0 2977 2737
0 2977 2823
0 2977 2903
0 2977 2977
0 2977 3046
0 2977 3111
0 2977 3171
0 2977 3227
0 2977 3279
0 2977 3327
0 2977 3373
0 2977 3415
0 3046 0
0 3046 87
0 3046 171
0 3046 276
0 3046 400
0 3046 539
0 3046 689
0 3046 847
0 3046 1010
0 3046 1174
0 3046 1337
0 3046 1497
0 3046 1652
0 3046 1801
0 3046 1944
0 3046 2080
0 3046 2207
0 3046 2328
0 3046 2440
0 3046 2546
0 3046 2645
0 3046 2737
0 3046 2823
0 3046 2903
0 3046 2977
0 3046 3046
0 3046 3111
0 3046 3171
0 3046 3227
0 3046 3279
0 3046 3327
0 3046 3373
0 3046 3415
0 3111 0
0 3111 87
0 3111 171
0 3111 276
0 3111 400
0 3111 539
0 3111 689
0 3111 847
0 3111 1010
0 3111 1174
0 3111 1337
0 3111 1497
0 3111 1652
0 3111 1801
0 3111 1944
0 3111 2080
0 3111 2207
0 3111 2328
0 3111 2440
0 3111 2546
0 3111 2645
0 3111 2737
0 3111 2823
0 3111 2903
0 3111 2977
0 3111 3046
0 3111 3111
0 3111 3171
0 3111 3227
0 3111 3279
0 3111 3327
0 3111 3373
0 3111 3415
0 3171 0
0 3171 87
0 3171 171
0 3171 276
0 3171 400
0 3171 539
0 3171 689
0 3171 847
0 3171 1010
