src-couleurs/docs/media/filmic-luts/3dl/filmic_to_sRGB-VeryLow.3dl
3DMESH
Mesh 5 12
0 32 64 96 128 160 192 224 256 288 320 352 384 416 448 480 512 543 575 607 639 671 703 735 767 799 831 863 895 927 959 991 1023
0 0 0
0 0 367
0 0 544
0 0 705
0 0 855
0 0 996
0 0 1129
0 0 1255
0 0 1375
0 0 1488
0 0 1597
0 0 1700
0 0 1798
0 0 1892
0 0 1982
0 0 2066
0 0 2139
0 0 2210
0 0 2277
0 0 2342
0 0 2404
0 0 2464
0 0 2521
0 0 2576
0 0 2629
0 0 2681
0 0 2730
0 0 2777
0 0 2823
0 0 2867
0 0 2910
0 0 2951
0 0 2990
0 367 0
0 367 367
0 367 544
0 367 705
0 367 855
0 367 996
0 367 1129
0 367 1255
0 367 1375
0 367 1488
0 367 1597
0 367 1700
0 367 1798
0 367 1892
0 367 1982
0 367 2066
0 367 2139
0 367 2210
0 367 2277
0 367 2342
0 367 2404
0 367 2464
0 367 2521
0 367 2576
0 367 2629
0 367 2681
0 367 2730
0 367 2777
0 367 2823
0 367 2867
0 367 2910
0 367 2951
0 367 2990
0 544 0
0 544 367
0 544 544
0 544 705
0 544 855
0 544 996
0 544 1129
0 544 1255
0 544 1375
0 544 1488
0 544 1597
0 544 1700
0 544 1798
0 544 1892
0 544 1982
0 544 2066
0 544 2139
0 544 2210
0 544 2277
0 544 2342
0 544 2404
0 544 2464
0 544 2521
0 544 2576
0 544 2629
0 544 2681
0 544 2730
0 544 2777
0 544 2823
0 544 2867
0 544 2910
0 544 2951
0 544 2990
0 705 0
0 705 367
0 705 544
0 705 705
0 705 855
0 705 996
0 705 1129
0 705 1255
0 705 1375
0 705 1488
0 705 1597
0 705 1700
0 705 1798
0 705 1892
0 705 1982
0 705 2066
0 705 2139
0 705 2210
0 705 2277
0 705 2342
0 705 2404
0 705 2464
0 705 2521
0 705 2576
0 705 2629
0 705 2681
0 705 2730
0 705 2777
0 705 2823
0 705 2867
0 705 2910
0 705 2951
0 705 2990
0 855 0
0 855 367
0 855 544
0 855 705
0 855 855
0 855 996
0 855 1129
0 855 1255
0 855 1375
0 855 1488
0 855 1597
0 855 1700
0 855 1798
0 855 1892
0 855 1982
0 855 2066
0 855 2139
0 855 2210
0 855 2277
0 855 2342
0 855 2404
0 855 2464
0 855 2521
0 855 2576
0 855 2629
0 855 2681
0 855 2730
0 855 2777
0 855 2823
0 855 2867
0 855 2910
0 855 2951
0 855 2990
0 996 0
0 996 367
0 996 544
0 996 705
0 996 855
0 996 996
0 996 1129
0 996 1255
0 996 1375
0 996 1488
0 996 1597
0 996 1700
0 996 1798
0 996 1892
0 996 1982
0 996 2066
0 996 2139
0 996 2210
0 996 2277
0 996 2342
0 996 2404
0 996 2464
0 996 2521
0 996 2576
0 996 2629
0 996 2681
0 996 2730
0 996 2777
0 996 2823
0 996 2867
0 996 2910
0 996 2951
0 996 2990
0 1129 0
0 1129 367
0 1129 544
0 1129 705
0 1129 855
0 1129 996
0 1129 1129
0 1129 1255
0 1129 1375
0 1129 1488
0 1129 1597
0 1129 1700
0 1129 1798
0 1129 1892
0 1129 1982
0 1129 2066
0 1129 2139
0 1129 2210
0 1129 2277
0 1129 2342
0 1129 2404
0 1129 2464
0 1129 2521
0 1129 2576
0 1129 2629
0 1129 2681
0 1129 2730
0 1129 2777
0 1129 2823
0 1129 2867
0 1129 2910
0 1129 2951
0 1129 2990
0 1255 0
0 1255 367
0 1255 544
0 1255 705
0 1255 855
0 1255 996
0 1255 1129
0 1255 1255
0 1255 1375
0 1255 1488
0 1255 1597
0 1255 1700
0 1255 1798
0 1255 1892
0 1255 1982
0 1255 2066
0 1255 2139
0 1255 2210
0 1255 2277
0 1255 2342
0 1255 2404
0 1255 2464
0 1255 2521
0 1255 2576
0 1255 2629
0 1255 2681
0 1255 2730
0 1255 2777
0 1255 2823
0 1255 2867
0 1255 2910
0 1255 2951
0 1255 2990
0 1375 0
0 1375 367
0 1375 544
0 1375 705
0 1375 855
0 1375 996
0 1375 1129
0 1375 1255
0 1375 1375
0 1375 1488
0 1375 1597
0 1375 1700
0 1375 1798
0 1375 1892
0 1375 1982
0 1375 2066
0 1375 2139
0 1375 2210
0 1375 2277
0 1375 2342
0 1375 2404
0 1375 2464
0 1375 2521
0 1375 2576
0 1375 2629
0 1375 2681
0 1375 2730
0 1375 2777
0 1375 2823
0 1375 2867
0 1375 2910
0 1375 2951
0 1375 2990
0 1488 0
0 1488 367
0 1488 544
0 1488 705
0 1488 855
0 1488 996
0 1488 1129
0 1488 1255
0 1488 1375
0 1488 1488
0 1488 1597
0 1488 1700
0 1488 1798
0 1488 1892
0 1488 1982
0 1488 2066
0 1488 2139
0 1488 2210
0 1488 2277
0 1488 2342
0 1488 2404
0 1488 2464
0 1488 2521
0 1488 2576
0 1488 2629
0 1488 2681
0 1488 2730
0 1488 2777
0 1488 2823
0 1488 2867
0 1488 2910
0 1488 2951
0 1488 2990
0 1597 0
0 1597 367
0 1597 544
0 1597 705
0 1597 855
0 1597 996
0 1597 1129
0 1597 1255
0 1597 1375
0 1597 1488
0 1597 1597
0 1597 1700
0 1597 1798
0 1597 1892
0 1597 1982
0 1597 2066
0 1597 2139
0 1597 2210
0 1597 2277
0 1597 2342
0 1597 2404
0 1597 2464
0 1597 2521
0 1597 2576
0 1597 2629
0 1597 2681
0 1597 2730
0 1597 2777
0 1597 2823
0 1597 2867
0 1597 2910
0 1597 2951
0 1597 2990
0 1700 0
0 1700 367
0 1700 544
0 1700 705
0 1700 855
0 1700 996
0 1700 1129
0 1700 1255
0 1700 1375
0 1700 1488
0 1700 1597
0 1700 1700
0 1700 1798
0 1700 1892
0 1700 1982
0 1700 2066
0 1700 2139
0 1700 2210
0 1700 2277
0 1700 2342
0 1700 2404
0 1700 2464
0 1700 2521
0 1700 2576
0 1700 2629
0 1700 2681
0 1700 2730
0 1700 2777
0 1700 2823
0 1700 2867
0 1700 2910
0 1700 2951
0 1700 2990
0 1798 0
0 1798 367
0 1798 544
0 1798 705
0 1798 855
0 1798 996
0 1798 1129
0 1798 1255
0 1798 1375
0 1798 1488
0 1798 1597
0 1798 1700
0 1798 1798
0 1798 1892
0 1798 1982
0 1798 2066
0 1798 2139
0 1798 2210
0 1798 2277
0 1798 2342
0 1798 2404
0 1798 2464
0 1798 2521
0 1798 2576
0 1798 2629
0 1798 2681
0 1798 2730
0 1798 2777
0 1798 2823
0 1798 2867
0 1798 2910
0 1798 2951
0 1798 2990
0 1892 0
0 1892 367
0 1892 544
0 1892 705
0 1892 855
0 1892 996
0 1892 1129
0 1892 1255
0 1892 1375
0 1892 1488
0 1892 1597
0 1892 1700
0 1892 1798
0 1892 1892
0 1892 1982
0 1892 2066
0 1892 2139
0 1892 2210
0 1892 2277
0 1892 2342
0 1892 2404
0 1892 2464
0 1892 2521
0 1892 2576
0 1892 2629
0 1892 2681
0 1892 2730
0 1892 2777
0 1892 2823
0 1892 2867
0 1892 2910
0 1892 2951
0 1892 2990
0 1982 0
0 1982 367
0 1982 544
0 1982 705
0 1982 855
0 1982 996
0 1982 1129
0 1982 1255
0 1982 1375
0 1982 1488
0 1982 1597
0 1982 1700
0 1982 1798
0 1982 1892
0 1982 1982
0 1982 2066
0 1982 2139
0 1982 2210
0 1982 2277
0 1982 2342
0 1982 2404
0 1982 2464
0 1982 2521
0 1982 2576
0 1982 2629
0 1982 2681
0 1982 2730
0 1982 2777
0 1982 2823
0 1982 2867
0 1982 2910
0 1982 2951
0 1982 2990
0 2066 0
0 2066 367
0 2066 544
0 2066 705
0 2066 855
0 2066 996
0 2066 1129
0 2066 1255
0 2066 1375
0 2066 1488
0 2066 1597
0 2066 1700
0 2066 1798
0 2066 1892
0 2066 1982
0 2066 2066
0 2066 2139
0 2066 2210
0 2066 2277
0 2066 2342
0 2066 2404
0 2066 2464
0 2066 2521
0 2066 2576
0 2066 2629
0 2066 2681
0 2066 2730
0 2066 2777
0 2066 2823
0 2066 2867
0 2066 2910
0 2066 2951
0 2066 2990
0 2139 0
0 2139 367
0 2139 544
0 2139 705
0 2139 855
0 2139 996
0 2139 1129
0 2139 1255
0 2139 1375
0 2139 1488
0 2139 1597
0 2139 1700
0 2139 1798
0 2139 1892
0 2139 1982
0 2139 2066
0 2139 2139
0 2139 2210
0 2139 2277
0 2139 2342
0 2139 2404
0 2139 2464
0 2139 2521
0 2139 2576
0 2139 2629
0 2139 2681
0 2139 2730
0 2139 2777
0 2139 2823
0 2139 2867
0 2139 2910
0 2139 2951
0 2139 2990
0 2210 0
0 2210 367
0 2210 544
0 2210 705
0 2210 855
0 2210 996
0 2210 1129
0 2210 1255
0 2210 1375
0 2210 1488
0 2210 1597
0 2210 1700
0 2210 1798
0 2210 1892
0 2210 1982
0 2210 2066
0 2210 2139
0 2210 2210
0 2210 2277
0 2210 2342
0 2210 2404
0 2210 2464
0 2210 2521
0 2210 2576
0 2210 2629
0 2210 2681
0 2210 2730
0 2210 2777
0 2210 2823
0 2210 2867
0 2210 2910
0 2210 2951
0 2210 2990
0 2277 0
0 2277 367
0 2277 544
0 2277 705
0 2277 855
0 2277 996
0 2277 1129
0 2277 1255
0 2277 1375
0 2277 1488
0 2277 1597
0 2277 1700
0 2277 1798
0 2277 1892
0 2277 1982
0 2277 2066
0 2277 2139
0 2277 2210
0 2277 2277
0 2277 2342
0 2277 2404
0 2277 2464
0 2277 2521
0 2277 2576
0 2277 2629
0 2277 2681
0 2277 2730
0 2277 2777
0 2277 2823
0 2277 2867
0 2277 2910
0 2277 2951
0 2277 2990
0 2342 0
0 2342 367
0 2342 544
0 2342 705
0 2342 855
0 2342 996
0 2342 1129
0 2342 1255
0 2342 1375
0 2342 1488
0 2342 1597
0 2342 1700
0 2342 1798
0 2342 1892
0 2342 1982
0 2342 2066
0 2342 2139
0 2342 2210
0 2342 2277
0 2342 2342
0 2342 2404
0 2342 2464
0 2342 2521
0 2342 2576
0 2342 2629
0 2342 2681
0 2342 2730
0 2342 2777
0 2342 2823
0 2342 2867
0 2342 2910
0 2342 2951
0 2342 2990
0 2404 0
0 2404 367
0 2404 544
0 2404 705
0 2404 855
0 2404 996
0 2404 1129
0 2404 1255
0 2404 1375
0 2404 1488
0 2404 1597
0 2404 1700
0 2404 1798
0 2404 1892
0 2404 1982
0 2404 2066
0 2404 2139
0 2404 2210
0 2404 2277
0 2404 2342
0 2404 2404
0 2404 2464
0 2404 2521
0 2404 2576
0 2404 2629
0 2404 2681
0 2404 2730
0 2404 2777
0 2404 2823
0 2404 2867
0 2404 2910
0 2404 2951
0 2404 2990
0 2464 0
0 2464 367
0 2464 544
0 2464 705
0 2464 855
0 2464 996
0 2464 1129
0 2464 1255
0 2464 1375
0 2464 1488
0 2464 1597
0 2464 1700
0 2464 1798
0 2464 1892
0 2464 1982
0 2464 2066
0 2464 2139
0 2464 2210
0 2464 2277
0 2464 2342
0 2464 2404
0 2464 2464
0 2464 2521
0 2464 2576
0 2464 2629
0 2464 2681
0 2464 2730
0 2464 2777
0 2464 2823
0 2464 2867
0 2464 2910
0 2464 2951
0 2464 2990
0 2521 0
0 2521 367
0 2521 544
0 2521 705
0 2521 855
0 2521 996
0 2521 1129
0 2521 1255
0 2521 1375
0 2521 1488
0 2521 1597
0 2521 1700
0 2521 1798
0 2521 1892
0 2521 1982
0 2521 2066
0 2521 2139
0 2521 2210
0 2521 2277
0 2521 2342
0 2521 2404
0 2521 2464
0 2521 2521
0 2521 2576
0 2521 2629
0 2521 2681
0 2521 2730
0 2521 2777
0 2521 2823
0 2521 2867
0 2521 2910
0 2521 2951
0 2521 2990
0 2576 0
0 2576 367
0 2576 544
0 2576 705
0 2576 855
0 2576 996
0 2576 1129
0 2576 1255
0 2576 1375
0 2576 1488
0 2576 1597
0 2576 1700
0 2576 1798
0 2576 1892
0 2576 1982
0 2576 2066
0 2576 2139
0 2576 2210
0 2576 2277
0 2576 2342
0 2576 2404
0 2576 2464
0 2576 2521
0 2576 2576
0 2576 2629
0 2576 2681
0 2576 2730
0 2576 2777
0 2576 2823
0 2576 2867
0 2576 2910
0 2576 2951
0 2576 2990
0 2629 0
0 2629 367
0 2629 544
0 2629 705
0 2629 855
0 2629 996
0 2629 1129
0 2629 1255
0 2629 1375
0 2629 1488
0 2629 1597
0 2629 1700
0 2629 1798
0 2629 1892
0 2629 1982
0 2629 2066
0 2629 2139
0 2629 2210
0 2629 2277
0 2629 2342
0 2629 2404
0 2629 2464
0 2629 2521
0 2629 2576
0 2629 2629
0 2629 2681
0 2629 2730
0 2629 2777
0 2629 2823
0 2629 2867
0 2629 2910
0 2629 2951
0 2629 2990
0 2681 0
0 2681 367
0 2681 544
0 2681 705
0 2681 855
0 2681 996
0 2681 1129
0 2681 1255
0 2681 1375
0 2681 1488
0 2681 1597
0 2681 1700
0 2681 1798
0 2681 1892
0 2681 1982
0 2681 2066
0 2681 2139
0 2681 2210
0 2681 2277
0 2681 2342
0 2681 2404
0 2681 2464
0 2681 2521
0 2681 2576
0 2681 2629
0 2681 2681
0 2681 2730
0 2681 2777
0 2681 2823
0 2681 2867
0 2681 2910
0 2681 2951
0 2681 2990
0 2730 0
0 2730 367
0 2730 544
0 2730 705
0 2730 855
0 2730 996
0 2730 1129
0 2730 1255
0 2730 1375
0 2730 1488
0 2730 1597
0 2730 1700
0 2730 1798
0 2730 1892
0 2730 1982
0 2730 2066
0 2730 2139
0 2730 2210
0 2730 2277
0 2730 2342
0 2730 2404
0 2730 2464
0 2730 2521
0 2730 2576
0 2730 2629
0 2730 2681
0 2730 2730
0 2730 2777
0 2730 2823
0 2730 2867
0 2730 2910
0 2730 2951
0 2730 2990
0 2777 0
0 2777 367
0 2777 544
0 2777 705
0 2777 855
0 2777 996
0 2777 1129
0 2777 1255
0 2777 1375
