src-couleurs/docs/media/filmic-luts/3dl/filmic_to_sRGB-VeryHigh.3dl
3DMESH
Mesh 5 12
0 32 64 96 128 160 192 224 256 288 320 352 384 416 448 480 512 543 575 607 639 671 703 735 767 799 831 863 895 927 959 991 1023
0 0 0
0 0 22
0 0 56
0 0 109
0 0 187
0 0 289
0 0 416
0 0 566
0 0 735
0 0 921
0 0 1117
0 0 1318
0 0 1519
0 0 1718
0 0 1909
0 0 2091
0 0 2262
0 0 2421
0 0 2568
0 0 2702
0 0 2825
0 0 2937
0 0 3038
0 0 3129
0 0 3212
0 0 3287
0 0 3355
0 0 3416
0 0 3471
0 0 3521
0 0 3566
0 0 3607
0 0 3644
0 22 0
0 22 22
0 22 56
0 22 109
0 22 187
0 22 289
0 22 416
0 22 566
0 22 735
0 22 921
0 22 1117
0 22 1318
0 22 1519
0 22 1718
0 22 1909
0 22 2091
0 22 2262
0 22 2421
0 22 2568
0 22 2702
0 22 2825
0 22 2937
0 22 3038
0 22 3129
0 22 3212
0 22 3287
0 22 3355
0 22 3416
0 22 3471
0 22 3521
0 22 3566
0 22 3607
0 22 3644
0 56 0
0 56 22
0 56 56
0 56 109
0 56 187
0 56 289
0 56 416
0 56 566
0 56 735
0 56 921
0 56 1117
0 56 1318
0 56 1519
0 56 1718
0 56 1909
0 56 2091
0 56 2262
0 56 2421
0 56 2568
0 56 2702
0 56 2825
0 56 2937
0 56 3038
0 56 3129
0 56 3212
0 56 3287
0 56 3355
0 56 3416
0 56 3471
0 56 3521
0 56 3566
0 56 3607
0 56 3644
0 109 0
0 109 22
0 109 56
0 109 109
0 109 187
0 109 289
0 109 416
0 109 566
0 109 735
0 109 921
0 109 1117
0 109 1318
0 109 1519
0 109 1718
0 109 1909
0 109 2091
0 109 2262
0 109 2421
0 109 2568
0 109 2702
0 109 2825
0 109 2937
0 109 3038
0 109 3129
0 109 3212
0 109 3287
0 109 3355
0 109 3416
0 109 3471
0 109 3521
0 109 3566
0 109 3607
0 109 3644
0 187 0
0 187 22
0 187 56
0 187 109
0 187 187
0 187 289
0 187 416
0 187 566
0 187 735
0 187 921
0 187 1117
0 187 1318
0 187 1519
0 187 1718
0 187 1909
0 187 2091
0 187 2262
0 187 2421
0 187 2568
0 187 2702
0 187 2825
0 187 2937
0 187 3038
0 187 3129
0 187 3212
0 187 3287
0 187 3355
0 187 3416
0 187 3471
0 187 3521
0 187 3566
0 187 3607
0 187 3644
0 289 0
0 289 22
0 289 56
0 289 109
0 289 187
0 289 289
0 289 416
0 289 566
0 289 735
0 289 921
0 289 1117
0 289 1318
0 289 1519
0 289 1718
0 289 1909
0 289 2091
0 289 2262
0 289 2421
0 289 2568
0 289 2702
0 289 2825
0 289 2937
0 289 3038
0 289 3129
0 289 3212
0 289 3287
0 289 3355
0 289 3416
0 289 3471
0 289 3521
0 289 3566
0 289 3607
0 289 3644
0 416 0
0 416 22
0 416 56
0 416 109
0 416 187
0 416 289
0 416 416
0 416 566
0 416 735
0 416 921
0 416 1117
0 416 1318
0 416 1519
0 416 1718
0 416 1909
0 416 2091
0 416 2262
0 416 2421
0 416 2568
0 416 2702
0 416 2825
0 416 2937
0 416 3038
0 416 3129
0 416 3212
0 416 3287
0 416 3355
0 416 3416
0 416 3471
0 416 3521
0 416 3566
0 416 3607
0 416 3644
0 566 0
0 566 22
0 566 56
0 566 109
0 566 187
0 566 289
0 566 416
0 566 566
0 566 735
0 566 921
0 566 1117
0 566 1318
0 566 1519
0 566 1718
0 566 1909
0 566 2091
0 566 2262
0 566 2421
0 566 2568
0 566 2702
0 566 2825
0 566 2937
0 566 3038
0 566 3129
0 566 3212
0 566 3287
0 566 3355
0 566 3416
0 566 3471
0 566 3521
0 566 3566
0 566 3607
0 566 3644
0 735 0
0 735 22
0 735 56
0 735 109
0 735 187
0 735 289
0 735 416
0 735 566
0 735 735
0 735 921
0 735 1117
0 735 1318
0 735 1519
0 735 1718
0 735 1909
0 735 2091
0 735 2262
0 735 2421
0 735 2568
0 735 2702
0 735 2825
0 735 2937
0 735 3038
0 735 3129
0 735 3212
0 735 3287
0 735 3355
0 735 3416
0 735 3471
0 735 3521
0 735 3566
0 735 3607
0 735 3644
0 921 0
0 921 22
0 921 56
0 921 109
0 921 187
0 921 289
0 921 416
0 921 566
0 921 735
0 921 921
0 921 1117
0 921 1318
0 921 1519
0 921 1718
0 921 1909
0 921 2091
0 921 2262
0 921 2421
0 921 2568
0 921 2702
0 921 2825
0 921 2937
0 921 3038
0 921 3129
0 921 3212
0 921 3287
0 921 3355
0 921 3416
0 921 3471
0 921 3521
0 921 3566
0 921 3607
0 921 3644
0 1117 0
0 1117 22
0 1117 56
0 1117 109
0 1117 187
0 1117 289
0 1117 416
0 1117 566
0 1117 735
0 1117 921
0 1117 1117
0 1117 1318
0 1117 1519
0 1117 1718
0 1117 1909
0 1117 2091
0 1117 2262
0 1117 2421
0 1117 2568
0 1117 2702
0 1117 2825
0 1117 2937
0 1117 3038
0 1117 3129
0 1117 3212
0 1117 3287
0 1117 3355
0 1117 3416
0 1117 3471
0 1117 3521
0 1117 3566
0 1117 3607
0 1117 3644
0 1318 0
0 1318 22
0 1318 56
0 1318 109
0 1318 187
0 1318 289
0 1318 416
0 1318 566
0 1318 735
0 1318 921
0 1318 1117
0 1318 1318
0 1318 1519
0 1318 1718
0 1318 1909
0 1318 2091
0 1318 2262
0 1318 2421
0 1318 2568
0 1318 2702
0 1318 2825
0 1318 2937
0 1318 3038
0 1318 3129
0 1318 3212
0 1318 3287
0 1318 3355
0 1318 3416
0 1318 3471
0 1318 3521
0 1318 3566
0 1318 3607
0 1318 3644
0 1519 0
0 1519 22
0 1519 56
0 1519 109
0 1519 187
0 1519 289
0 1519 416
0 1519 566
0 1519 735
0 1519 921
0 1519 1117
0 1519 1318
0 1519 1519
0 1519 1718
0 1519 1909
0 1519 2091
0 1519 2262
0 1519 2421
0 1519 2568
0 1519 2702
0 1519 2825
0 1519 2937
0 1519 3038
0 1519 3129
0 1519 3212
0 1519 3287
0 1519 3355
0 1519 3416
0 1519 3471
0 1519 3521
0 1519 3566
0 1519 3607
0 1519 3644
0 1718 0
0 1718 22
0 1718 56
0 1718 109
0 1718 187
0 1718 289
0 1718 416
0 1718 566
0 1718 735
0 1718 921
0 1718 1117
0 1718 1318
0 1718 1519
0 1718 1718
0 1718 1909
0 1718 2091
0 1718 2262
0 1718 2421
0 1718 2568
0 1718 2702
0 1718 2825
0 1718 2937
0 1718 3038
0 1718 3129
0 1718 3212
0 1718 3287
0 1718 3355
0 1718 3416
0 1718 3471
0 1718 3521
0 1718 3566
0 1718 3607
0 1718 3644
0 1909 0
0 1909 22
0 1909 56
0 1909 109
0 1909 187
0 1909 289
0 1909 416
0 1909 566
0 1909 735
0 1909 921
0 1909 1117
0 1909 1318
0 1909 1519
0 1909 1718
0 1909 1909
0 1909 2091
0 1909 2262
0 1909 2421
0 1909 2568
0 1909 2702
0 1909 2825
0 1909 2937
0 1909 3038
0 1909 3129
0 1909 3212
0 1909 3287
0 1909 3355
0 1909 3416
0 1909 3471
0 1909 3521
0 1909 3566
0 1909 3607
0 1909 3644
0 2091 0
0 2091 22
0 2091 56
0 2091 109
0 2091 187
0 2091 289
0 2091 416
0 2091 566
0 2091 735
0 2091 921
0 2091 1117
0 2091 1318
0 2091 1519
0 2091 1718
0 2091 1909
0 2091 2091
0 2091 2262
0 2091 2421
0 2091 2568
0 2091 2702
0 2091 2825
0 2091 2937
0 2091 3038
0 2091 3129
0 2091 3212
0 2091 3287
0 2091 3355
0 2091 3416
0 2091 3471
0 2091 3521
0 2091 3566
0 2091 3607
0 2091 3644
0 2262 0
0 2262 22
0 2262 56
0 2262 109
0 2262 187
0 2262 289
0 2262 416
0 2262 566
0 2262 735
0 2262 921
0 2262 1117
0 2262 1318
0 2262 1519
0 2262 1718
0 2262 1909
0 2262 2091
0 2262 2262
0 2262 2421
0 2262 2568
0 2262 2702
0 2262 2825
0 2262 2937
0 2262 3038
0 2262 3129
0 2262 3212
0 2262 3287
0 2262 3355
0 2262 3416
0 2262 3471
0 2262 3521
0 2262 3566
0 2262 3607
0 2262 3644
0 2421 0
0 2421 22
0 2421 56
0 2421 109
0 2421 187
0 2421 289
0 2421 416
0 2421 566
0 2421 735
0 2421 921
0 2421 1117
0 2421 1318
0 2421 1519
0 2421 1718
0 2421 1909
0 2421 2091
0 2421 2262
0 2421 2421
0 2421 2568
0 2421 2702
0 2421 2825
0 2421 2937
0 2421 3038
0 2421 3129
0 2421 3212
0 2421 3287
0 2421 3355
0 2421 3416
0 2421 3471
0 2421 3521
0 2421 3566
0 2421 3607
0 2421 3644
0 2568 0
0 2568 22
0 2568 56
0 2568 109
0 2568 187
0 2568 289
0 2568 416
0 2568 566
0 2568 735
0 2568 921
0 2568 1117
0 2568 1318
0 2568 1519
0 2568 1718
0 2568 1909
0 2568 2091
0 2568 2262
0 2568 2421
0 2568 2568
0 2568 2702
0 2568 2825
0 2568 2937
0 2568 3038
0 2568 3129
0 2568 3212
0 2568 3287
0 2568 3355
0 2568 3416
0 2568 3471
0 2568 3521
0 2568 3566
0 2568 3607
0 2568 3644
0 2702 0
0 2702 22
0 2702 56
0 2702 109
0 2702 187
0 2702 289
0 2702 416
0 2702 566
0 2702 735
0 2702 921
0 2702 1117
0 2702 1318
0 2702 1519
0 2702 1718
0 2702 1909
0 2702 2091
0 2702 2262
0 2702 2421
0 2702 2568
0 2702 2702
0 2702 2825
0 2702 2937
0 2702 3038
0 2702 3129
0 2702 3212
0 2702 3287
0 2702 3355
0 2702 3416
0 2702 3471
0 2702 3521
0 2702 3566
0 2702 3607
0 2702 3644
0 2825 0
0 2825 22
0 2825 56
0 2825 109
0 2825 187
0 2825 289
0 2825 416
0 2825 566
0 2825 735
0 2825 921
0 2825 1117
0 2825 1318
0 2825 1519
0 2825 1718
0 2825 1909
0 2825 2091
0 2825 2262
0 2825 2421
0 2825 2568
0 2825 2702
0 2825 2825
0 2825 2937
0 2825 3038
0 2825 3129
0 2825 3212
0 2825 3287
0 2825 3355
0 2825 3416
0 2825 3471
0 2825 3521
0 2825 3566
0 2825 3607
0 2825 3644
0 2937 0
0 2937 22
0 2937 56
0 2937 109
0 2937 187
0 2937 289
0 2937 416
0 2937 566
0 2937 735
0 2937 921
0 2937 1117
0 2937 1318
0 2937 1519
0 2937 1718
0 2937 1909
0 2937 2091
0 2937 2262
0 2937 2421
0 2937 2568
0 2937 2702
0 2937 2825
0 2937 2937
0 2937 3038
0 2937 3129
0 2937 3212
0 2937 3287
0 2937 3355
0 2937 3416
0 2937 3471
0 2937 3521
0 2937 3566
0 2937 3607
0 2937 3644
0 3038 0
0 3038 22
0 3038 56
0 3038 109
0 3038 187
0 3038 289
0 3038 416
0 3038 566
0 3038 735
0 3038 921
0 3038 1117
0 3038 1318
0 3038 1519
0 3038 1718
0 3038 1909
0 3038 2091
0 3038 2262
0 3038 2421
0 3038 2568
0 3038 2702
0 3038 2825
0 3038 2937
0 3038 3038
0 3038 3129
0 3038 3212
0 3038 3287
0 3038 3355
0 3038 3416
0 3038 3471
0 3038 3521
0 3038 3566
0 3038 3607
0 3038 3644
0 3129 0
0 3129 22
0 3129 56
0 3129 109
0 3129 187
0 3129 289
0 3129 416
0 3129 566
0 3129 735
0 3129 921
0 3129 1117
0 3129 1318
0 3129 1519
0 3129 1718
0 3129 1909
0 3129 2091
0 3129 2262
0 3129 2421
0 3129 2568
0 3129 2702
0 3129 2825
0 3129 2937
0 3129 3038
0 3129 3129
0 3129 3212
0 3129 3287
0 3129 3355
0 3129 3416
0 3129 3471
0 3129 3521
0 3129 3566
0 3129 3607
0 3129 3644
0 3212 0
0 3212 22
0 3212 56
0 3212 109
0 3212 187
0 3212 289
0 3212 416
0 3212 566
0 3212 735
0 3212 921
0 3212 1117
0 3212 1318
0 3212 1519
0 3212 1718
0 3212 1909
0 3212 2091
0 3212 2262
0 3212 2421
0 3212 2568
0 3212 2702
0 3212 2825
0 3212 2937
0 3212 3038
0 3212 3129
0 3212 3212
0 3212 3287
0 3212 3355
0 3212 3416
0 3212 3471
0 3212 3521
0 3212 3566
0 3212 3607
0 3212 3644
0 3287 0
0 3287 22
0 3287 56
0 3287 109
0 3287 187
0 3287 289
0 3287 416
0 3287 566
0 3287 735
0 3287 921
0 3287 1117
0 3287 1318
0 3287 1519
0 3287 1718
0 3287 1909
0 3287 2091
0 3287 2262
0 3287 2421
0 3287 2568
0 3287 2702
0 3287 2825
0 3287 2937
0 3287 3038
0 3287 3129
0 3287 3212
0 3287 3287
0 3287 3355
0 3287 3416
0 3287 3471
0 3287 3521
0 3287 3566
0 3287 3607
0 3287 3644
0 3355 0
0 3355 22
0 3355 56
0 3355 109
0 3355 187
0 3355 289
0 3355 416
0 3355 566
0 3355 735
0 3355 921
0 3355 1117
0 3355 1318
0 3355 1519
0 3355 1718
0 3355 1909
0 3355 2091
0 3355 2262
0 3355 2421
0 3355 2568
0 3355 2702
0 3355 2825
0 3355 2937
0 3355 3038
0 3355 3129
0 3355 3212
0 3355 3287
0 3355 3355
0 3355 3416
0 3355 3471
0 3355 3521
0 3355 3566
0 3355 3607
0 3355 3644
0 3416 0
0 3416 22
0 3416 56
0 3416 109
0 3416 187
0 3416 289
0 3416 416
0 3416 566
0 3416 735
