src-couleurs/docs/media/filmic-luts/3dl/filmic_to_sRGB-Low.3dl
3DMESH
Mesh 5 12
0 32 64 96 128 160 192 224 256 288 320 352 384 416 448 480 512 543 575 607 639 671 703 735 767 799 831 863 895 927 959 991 1023
0 0 0
0 0 281
0 0 441
0 0 596
0 0 748
0 0 895
0 0 1037
0 0 1173
0 0 1304
0 0 1429
0 0 1549
0 0 1663
0 0 1772
0 0 1876
0 0 1976
0 0 2069
0 0 2154
0 0 2235
0 0 2313
0 0 2387
0 0 2457
0 0 2524
0 0 2588
0 0 2650
0 0 2708
0 0 2764
0 0 2817
0 0 2868
0 0 2917
0 0 2964
0 0 3008
0 0 3051
0 0 3092
0 281 0
0 281 281
0 281 441
0 281 596
0 281 748
0 281 895
0 281 1037
0 281 1173
0 281 1304
0 281 1429
0 281 1549
0 281 1663
0 281 1772
0 281 1876
0 281 1976
0 281 2069
0 281 2154
0 281 2235
0 281 2313
0 281 2387
0 281 2457
0 281 2524
0 281 2588
0 281 2650
0 281 2708
0 281 2764
0 281 2817
0 281 2868
0 281 2917
0 281 2964
0 281 3008
0 281 3051
0 281 3092
0 441 0
0 441 281
0 441 441
0 441 596
0 441 748
0 441 895
0 441 1037
0 441 1173
0 441 1304
0 441 1429
0 441 1549
0 441 1663
0 441 1772
0 441 1876
0 441 1976
0 441 2069
0 441 2154
0 441 2235
0 441 2313
0 441 2387
0 441 2457
0 441 2524
0 441 2588
0 441 2650
0 441 2708
0 441 2764
0 441 2817
0 441 2868
0 441 2917
0 441 2964
0 441 3008
0 441 3051
0 441 3092
0 596 0
0 596 281
0 596 441
0 596 596
0 596 748
0 596 895
0 596 1037
0 596 1173
0 596 1304
0 596 1429
0 596 1549
0 596 1663
0 596 1772
0 596 1876
0 596 1976
0 596 2069
0 596 2154
0 596 2235
0 596 2313
0 596 2387
0 596 2457
0 596 2524
0 596 2588
0 596 2650
0 596 2708
0 596 2764
0 596 2817
0 596 2868
0 596 2917
0 596 2964
0 596 3008
0 596 3051
0 596 3092
0 748 0
0 748 281
0 748 441
0 748 596
0 748 748
0 748 895
0 748 1037
0 748 1173
0 748 1304
0 748 1429
0 748 1549
0 748 1663
0 748 1772
0 748 1876
0 748 1976
0 748 2069
0 748 2154
0 748 2235
0 748 2313
0 748 2387
0 748 2457
0 748 2524
0 748 2588
0 748 2650
0 748 2708
0 748 2764
0 748 2817
0 748 2868
0 748 2917
0 748 2964
0 748 3008
0 748 3051
0 748 3092
0 895 0
0 895 281
0 895 441
0 895 596
0 895 748
0 895 895
0 895 1037
0 895 1173
0 895 1304
0 895 1429
0 895 1549
0 895 1663
0 895 1772
0 895 1876
0 895 1976
0 895 2069
0 895 2154
0 895 2235
0 895 2313
0 895 2387
0 895 2457
0 895 2524
0 895 2588
0 895 2650
0 895 2708
0 895 2764
0 895 2817
0 895 2868
0 895 2917
0 895 2964
0 895 3008
0 895 3051
0 895 3092
0 1037 0
0 1037 281
0 1037 441
0 1037 596
0 1037 748
0 1037 895
0 1037 1037
0 1037 1173
0 1037 1304
0 1037 1429
0 1037 1549
0 1037 1663
0 1037 1772
0 1037 1876
0 1037 1976
0 1037 2069
0 1037 2154
0 1037 2235
0 1037 2313
0 1037 2387
0 1037 2457
0 1037 2524
0 1037 2588
0 1037 2650
0 1037 2708
0 1037 2764
0 1037 2817
0 1037 2868
0 1037 2917
0 1037 2964
0 1037 3008
0 1037 3051
0 1037 3092
0 1173 0
0 1173 281
0 1173 441
0 1173 596
0 1173 748
0 1173 895
0 1173 1037
0 1173 1173
0 1173 1304
0 1173 1429
0 1173 1549
0 1173 1663
0 1173 1772
0 1173 1876
0 1173 1976
0 1173 2069
0 1173 2154
0 1173 2235
0 1173 2313
0 1173 2387
0 1173 2457
0 1173 2524
0 1173 2588
0 1173 2650
0 1173 2708
0 1173 2764
0 1173 2817
0 1173 2868
0 1173 2917
0 1173 2964
0 1173 3008
0 1173 3051
0 1173 3092
0 1304 0
0 1304 281
0 1304 441
0 1304 596
0 1304 748
0 1304 895
0 1304 1037
0 1304 1173
0 1304 1304
0 1304 1429
0 1304 1549
0 1304 1663
0 1304 1772
0 1304 1876
0 1304 1976
0 1304 2069
0 1304 2154
0 1304 2235
0 1304 2313
0 1304 2387
0 1304 2457
0 1304 2524
0 1304 2588
0 1304 2650
0 1304 2708
0 1304 2764
0 1304 2817
0 1304 2868
0 1304 2917
0 1304 2964
0 1304 3008
0 1304 3051
0 1304 3092
0 1429 0
0 1429 281
0 1429 441
0 1429 596
0 1429 748
0 1429 895
0 1429 1037
0 1429 1173
0 1429 1304
0 1429 1429
0 1429 1549
0 1429 1663
0 1429 1772
0 1429 1876
0 1429 1976
0 1429 2069
0 1429 2154
0 1429 2235
0 1429 2313
0 1429 2387
0 1429 2457
0 1429 2524
0 1429 2588
0 1429 2650
0 1429 2708
0 1429 2764
0 1429 2817
0 1429 2868
0 1429 2917
0 1429 2964
0 1429 3008
0 1429 3051
0 1429 3092
0 1549 0
0 1549 281
0 1549 441
0 1549 596
0 1549 748
0 1549 895
0 1549 1037
0 1549 1173
0 1549 1304
0 1549 1429
0 1549 1549
0 1549 1663
0 1549 1772
0 1549 1876
0 1549 1976
0 1549 2069
0 1549 2154
0 1549 2235
0 1549 2313
0 1549 2387
0 1549 2457
0 1549 2524
0 1549 2588
0 1549 2650
0 1549 2708
0 1549 2764
0 1549 2817
0 1549 2868
0 1549 2917
0 1549 2964
0 1549 3008
0 1549 3051
0 1549 3092
0 1663 0
0 1663 281
0 1663 441
0 1663 596
0 1663 748
0 1663 895
0 1663 1037
0 1663 1173
0 1663 1304
0 1663 1429
0 1663 1549
0 1663 1663
0 1663 1772
0 1663 1876
0 1663 1976
0 1663 2069
0 1663 2154
0 1663 2235
0 1663 2313
0 1663 2387
0 1663 2457
0 1663 2524
0 1663 2588
0 1663 2650
0 1663 2708
0 1663 2764
0 1663 2817
0 1663 2868
0 1663 2917
0 1663 2964
0 1663 3008
0 1663 3051
0 1663 3092
0 1772 0
0 1772 281
0 1772 441
0 1772 596
0 1772 748
0 1772 895
0 1772 1037
0 1772 1173
0 1772 1304
0 1772 1429
0 1772 1549
0 1772 1663
0 1772 1772
0 1772 1876
0 1772 1976
0 1772 2069
0 1772 2154
0 1772 2235
0 1772 2313
0 1772 2387
0 1772 2457
0 1772 2524
0 1772 2588
0 1772 2650
0 1772 2708
0 1772 2764
0 1772 2817
0 1772 2868
0 1772 2917
0 1772 2964
0 1772 3008
0 1772 3051
0 1772 3092
0 1876 0
0 1876 281
0 1876 441
0 1876 596
0 1876 748
0 1876 895
0 1876 1037
0 1876 1173
0 1876 1304
0 1876 1429
0 1876 1549
0 1876 1663
0 1876 1772
0 1876 1876
0 1876 1976
0 1876 2069
0 1876 2154
0 1876 2235
0 1876 2313
0 1876 2387
0 1876 2457
0 1876 2524
0 1876 2588
0 1876 2650
0 1876 2708
0 1876 2764
0 1876 2817
0 1876 2868
0 1876 2917
0 1876 2964
0 1876 3008
0 1876 3051
0 1876 3092
0 1976 0
0 1976 281
0 1976 441
0 1976 596
0 1976 748
0 1976 895
0 1976 1037
0 1976 1173
0 1976 1304
0 1976 1429
0 1976 1549
0 1976 1663
0 1976 1772
0 1976 1876
0 1976 1976
0 1976 2069
0 1976 2154
0 1976 2235
0 1976 2313
0 1976 2387
0 1976 2457
0 1976 2524
0 1976 2588
0 1976 2650
0 1976 2708
0 1976 2764
0 1976 2817
0 1976 2868
0 1976 2917
0 1976 2964
0 1976 3008
0 1976 3051
0 1976 3092
0 2069 0
0 2069 281
0 2069 441
0 2069 596
0 2069 748
0 2069 895
0 2069 1037
0 2069 1173
0 2069 1304
0 2069 1429
0 2069 1549
0 2069 1663
0 2069 1772
0 2069 1876
0 2069 1976
0 2069 2069
0 2069 2154
0 2069 2235
0 2069 2313
0 2069 2387
0 2069 2457
0 2069 2524
0 2069 2588
0 2069 2650
0 2069 2708
0 2069 2764
0 2069 2817
0 2069 2868
0 2069 2917
0 2069 2964
0 2069 3008
0 2069 3051
0 2069 3092
0 2154 0
0 2154 281
0 2154 441
0 2154 596
0 2154 748
0 2154 895
0 2154 1037
0 2154 1173
0 2154 1304
0 2154 1429
0 2154 1549
0 2154 1663
0 2154 1772
0 2154 1876
0 2154 1976
0 2154 2069
0 2154 2154
0 2154 2235
0 2154 2313
0 2154 2387
0 2154 2457
0 2154 2524
0 2154 2588
0 2154 2650
0 2154 2708
0 2154 2764
0 2154 2817
0 2154 2868
0 2154 2917
0 2154 2964
0 2154 3008
0 2154 3051
0 2154 3092
0 2235 0
0 2235 281
0 2235 441
0 2235 596
0 2235 748
0 2235 895
0 2235 1037
0 2235 1173
0 2235 1304
0 2235 1429
0 2235 1549
0 2235 1663
0 2235 1772
0 2235 1876
0 2235 1976
0 2235 2069
0 2235 2154
0 2235 2235
0 2235 2313
0 2235 2387
0 2235 2457
0 2235 2524
0 2235 2588
0 2235 2650
0 2235 2708
0 2235 2764
0 2235 2817
0 2235 2868
0 2235 2917
0 2235 2964
0 2235 3008
0 2235 3051
0 2235 3092
0 2313 0
0 2313 281
0 2313 441
0 2313 596
0 2313 748
0 2313 895
0 2313 1037
0 2313 1173
0 2313 1304
0 2313 1429
0 2313 1549
0 2313 1663
0 2313 1772
0 2313 1876
0 2313 1976
0 2313 2069
0 2313 2154
0 2313 2235
0 2313 2313
0 2313 2387
0 2313 2457
0 2313 2524
0 2313 2588
0 2313 2650
0 2313 2708
0 2313 2764
0 2313 2817
0 2313 2868
0 2313 2917
0 2313 2964
0 2313 3008
0 2313 3051
0 2313 3092
0 2387 0
0 2387 281
0 2387 441
0 2387 596
0 2387 748
0 2387 895
0 2387 1037
0 2387 1173
0 2387 1304
0 2387 1429
0 2387 1549
0 2387 1663
0 2387 1772
0 2387 1876
0 2387 1976
0 2387 2069
0 2387 2154
0 2387 2235
0 2387 2313
0 2387 2387
0 2387 2457
0 2387 2524
0 2387 2588
0 2387 2650
0 2387 2708
0 2387 2764
0 2387 2817
0 2387 2868
0 2387 2917
0 2387 2964
0 2387 3008
0 2387 3051
0 2387 3092
0 2457 0
0 2457 281
0 2457 441
0 2457 596
0 2457 748
0 2457 895
0 2457 1037
0 2457 1173
0 2457 1304
0 2457 1429
0 2457 1549
0 2457 1663
0 2457 1772
0 2457 1876
0 2457 1976
0 2457 2069
0 2457 2154
0 2457 2235
0 2457 2313
0 2457 2387
0 2457 2457
0 2457 2524
0 2457 2588
0 2457 2650
0 2457 2708
0 2457 2764
0 2457 2817
0 2457 2868
0 2457 2917
0 2457 2964
0 2457 3008
0 2457 3051
0 2457 3092
0 2524 0
0 2524 281
0 2524 441
0 2524 596
0 2524 748
0 2524 895
0 2524 1037
0 2524 1173
0 2524 1304
0 2524 1429
0 2524 1549
0 2524 1663
0 2524 1772
0 2524 1876
0 2524 1976
0 2524 2069
0 2524 2154
0 2524 2235
0 2524 2313
0 2524 2387
0 2524 2457
0 2524 2524
0 2524 2588
0 2524 2650
0 2524 2708
0 2524 2764
0 2524 2817
0 2524 2868
0 2524 2917
0 2524 2964
0 2524 3008
0 2524 3051
0 2524 3092
0 2588 0
0 2588 281
0 2588 441
0 2588 596
0 2588 748
0 2588 895
0 2588 1037
0 2588 1173
0 2588 1304
0 2588 1429
0 2588 1549
0 2588 1663
0 2588 1772
0 2588 1876
0 2588 1976
0 2588 2069
0 2588 2154
0 2588 2235
0 2588 2313
0 2588 2387
0 2588 2457
0 2588 2524
0 2588 2588
0 2588 2650
0 2588 2708
0 2588 2764
0 2588 2817
0 2588 2868
0 2588 2917
0 2588 2964
0 2588 3008
0 2588 3051
0 2588 3092
0 2650 0
0 2650 281
0 2650 441
0 2650 596
0 2650 748
0 2650 895
0 2650 1037
0 2650 1173
0 2650 1304
0 2650 1429
0 2650 1549
0 2650 1663
0 2650 1772
0 2650 1876
0 2650 1976
0 2650 2069
0 2650 2154
0 2650 2235
0 2650 2313
0 2650 2387
0 2650 2457
0 2650 2524
0 2650 2588
0 2650 2650
0 2650 2708
0 2650 2764
0 2650 2817
0 2650 2868
0 2650 2917
0 2650 2964
0 2650 3008
0 2650 3051
0 2650 3092
0 2708 0
0 2708 281
0 2708 441
0 2708 596
0 2708 748
0 2708 895
0 2708 1037
0 2708 1173
0 2708 1304
0 2708 1429
0 2708 1549
0 2708 1663
0 2708 1772
0 2708 1876
0 2708 1976
0 2708 2069
0 2708 2154
0 2708 2235
0 2708 2313
0 2708 2387
0 2708 2457
0 2708 2524
0 2708 2588
0 2708 2650
0 2708 2708
0 2708 2764
0 2708 2817
0 2708 2868
0 2708 2917
0 2708 2964
0 2708 3008
0 2708 3051
0 2708 3092
0 2764 0
0 2764 281
0 2764 441
0 2764 596
0 2764 748
0 2764 895
0 2764 1037
0 2764 1173
0 2764 1304
0 2764 1429
0 2764 1549
0 2764 1663
0 2764 1772
0 2764 1876
0 2764 1976
0 2764 2069
0 2764 2154
0 2764 2235
0 2764 2313
0 2764 2387
0 2764 2457
0 2764 2524
0 2764 2588
0 2764 2650
0 2764 2708
0 2764 2764
0 2764 2817
0 2764 2868
0 2764 2917
0 2764 2964
0 2764 3008
0 2764 3051
0 2764 3092
0 2817 0
0 2817 281
0 2817 441
0 2817 596
0 2817 748
0 2817 895
0 2817 1037
0 2817 1173
0 2817 1304
0 2817 1429
0 2817 1549
0 2817 1663
0 2817 1772
0 2817 1876
0 2817 1976
0 2817 2069
0 2817 2154
0 2817 2235
0 2817 2313
0 2817 2387
0 2817 2457
0 2817 2524
0 2817 2588
0 2817 2650
0 2817 2708
0 2817 2764
0 2817 2817
0 2817 2868
0 2817 2917
0 2817 2964
0 2817 3008
0 2817 3051
0 2817 3092
0 2868 0
0 2868 281
0 2868 441
0 2868 596
0 2868 748
0 2868 895
0 2868 1037
0 2868 1173
0 2868 1304
