docs/colors/media/filmic-luts/3dl/filmic_to_sRGB-High.3dl
3DMESH
Mesh 5 12
0 32 64 96 128 160 192 224 256 288 320 352 384 416 448 480 512 543 575 607 639 671 703 735 767 799 831 863 895 927 959 991 1023
0 0 0
0 0 50
0 0 110
0 0 191
0 0 296
0 0 421
0 0 564
0 0 721
0 0 890
0 0 1065
0 0 1243
0 0 1421
0 0 1596
0 0 1766
0 0 1929
0 0 2085
0 0 2231
0 0 2368
0 0 2496
0 0 2615
0 0 2725
0 0 2827
0 0 2921
0 0 3008
0 0 3087
0 0 3161
0 0 3228
0 0 3290
0 0 3347
0 0 3400
0 0 3448
0 0 3493
0 0 3534
0 50 0
0 50 50
0 50 110
0 50 191
0 50 296
0 50 421
0 50 564
0 50 721
0 50 890
0 50 1065
0 50 1243
0 50 1421
0 50 1596
0 50 1766
0 50 1929
0 50 2085
0 50 2231
0 50 2368
0 50 2496
0 50 2615
0 50 2725
0 50 2827
0 50 2921
0 50 3008
0 50 3087
0 50 3161
0 50 3228
0 50 3290
0 50 3347
0 50 3400
0 50 3448
0 50 3493
0 50 3534
0 110 0
0 110 50
0 110 110
0 110 191
0 110 296
0 110 421
0 110 564
0 110 721
0 110 890
0 110 1065
0 110 1243
0 110 1421
0 110 1596
0 110 1766
0 110 1929
0 110 2085
0 110 2231
0 110 2368
0 110 2496
0 110 2615
0 110 2725
0 110 2827
0 110 2921
0 110 3008
0 110 3087
0 110 3161
0 110 3228
0 110 3290
0 110 3347
0 110 3400
0 110 3448
0 110 3493
0 110 3534
0 191 0
0 191 50
0 191 110
0 191 191
0 191 296
0 191 421
0 191 564
0 191 721
0 191 890
0 191 1065
0 191 1243
0 191 1421
0 191 1596
0 191 1766
0 191 1929
0 191 2085
0 191 2231
0 191 2368
0 191 2496
0 191 2615
0 191 2725
0 191 2827
0 191 2921
0 191 3008
0 191 3087
0 191 3161
0 191 3228
0 191 3290
0 191 3347
0 191 3400
0 191 3448
0 191 3493
0 191 3534
0 296 0
0 296 50
0 296 110
0 296 191
0 296 296
0 296 421
0 296 564
0 296 721
0 296 890
0 296 1065
0 296 1243
0 296 1421
0 296 1596
0 296 1766
0 296 1929
0 296 2085
0 296 2231
0 296 2368
0 296 2496
0 296 2615
0 296 2725
0 296 2827
0 296 2921
0 296 3008
0 296 3087
0 296 3161
0 296 3228
0 296 3290
0 296 3347
0 296 3400
0 296 3448
0 296 3493
0 296 3534
0 421 0
0 421 50
0 421 110
0 421 191
0 421 296
0 421 421
0 421 564
0 421 721
0 421 890
0 421 1065
0 421 1243
0 421 1421
0 421 1596
0 421 1766
0 421 1929
0 421 2085
0 421 2231
0 421 2368
0 421 2496
0 421 2615
0 421 2725
0 421 2827
0 421 2921
0 421 3008
0 421 3087
0 421 3161
0 421 3228
0 421 3290
0 421 3347
0 421 3400
0 421 3448
0 421 3493
0 421 3534
0 564 0
0 564 50
0 564 110
0 564 191
0 564 296
0 564 421
0 564 564
0 564 721
0 564 890
0 564 1065
0 564 1243
0 564 1421
0 564 1596
0 564 1766
0 564 1929
0 564 2085
0 564 2231
0 564 2368
0 564 2496
0 564 2615
0 564 2725
0 564 2827
0 564 2921
0 564 3008
0 564 3087
0 564 3161
0 564 3228
0 564 3290
0 564 3347
0 564 3400
0 564 3448
0 564 3493
0 564 3534
0 721 0
0 721 50
0 721 110
0 721 191
0 721 296
0 721 421
0 721 564
0 721 721
0 721 890
0 721 1065
0 721 1243
0 721 1421
0 721 1596
0 721 1766
0 721 1929
0 721 2085
0 721 2231
0 721 2368
0 721 2496
0 721 2615
0 721 2725
0 721 2827
0 721 2921
0 721 3008
0 721 3087
0 721 3161
0 721 3228
0 721 3290
0 721 3347
0 721 3400
0 721 3448
0 721 3493
0 721 3534
0 890 0
0 890 50
0 890 110
0 890 191
0 890 296
0 890 421
0 890 564
0 890 721
0 890 890
0 890 1065
0 890 1243
0 890 1421
0 890 1596
0 890 1766
0 890 1929
0 890 2085
0 890 2231
0 890 2368
0 890 2496
0 890 2615
0 890 2725
0 890 2827
0 890 2921
0 890 3008
0 890 3087
0 890 3161
0 890 3228
0 890 3290
0 890 3347
0 890 3400
0 890 3448
0 890 3493
0 890 3534
0 1065 0
0 1065 50
0 1065 110
0 1065 191
0 1065 296
0 1065 421
0 1065 564
0 1065 721
0 1065 890
0 1065 1065
0 1065 1243
0 1065 1421
0 1065 1596
0 1065 1766
0 1065 1929
0 1065 2085
0 1065 2231
0 1065 2368
0 1065 2496
0 1065 2615
0 1065 2725
0 1065 2827
0 1065 2921
0 1065 3008
0 1065 3087
0 1065 3161
0 1065 3228
0 1065 3290
0 1065 3347
0 1065 3400
0 1065 3448
0 1065 3493
0 1065 3534
0 1243 0
0 1243 50
0 1243 110
0 1243 191
0 1243 296
0 1243 421
0 1243 564
0 1243 721
0 1243 890
0 1243 1065
0 1243 1243
0 1243 1421
0 1243 1596
0 1243 1766
0 1243 1929
0 1243 2085
0 1243 2231
0 1243 2368
0 1243 2496
0 1243 2615
0 1243 2725
0 1243 2827
0 1243 2921
0 1243 3008
0 1243 3087
0 1243 3161
0 1243 3228
0 1243 3290
0 1243 3347
0 1243 3400
0 1243 3448
0 1243 3493
0 1243 3534
0 1421 0
0 1421 50
0 1421 110
0 1421 191
0 1421 296
0 1421 421
0 1421 564
0 1421 721
0 1421 890
0 1421 1065
0 1421 1243
0 1421 1421
0 1421 1596
0 1421 1766
0 1421 1929
0 1421 2085
0 1421 2231
0 1421 2368
0 1421 2496
0 1421 2615
0 1421 2725
0 1421 2827
0 1421 2921
0 1421 3008
0 1421 3087
0 1421 3161
0 1421 3228
0 1421 3290
0 1421 3347
0 1421 3400
0 1421 3448
0 1421 3493
0 1421 3534
0 1596 0
0 1596 50
0 1596 110
0 1596 191
0 1596 296
0 1596 421
0 1596 564
0 1596 721
0 1596 890
0 1596 1065
0 1596 1243
0 1596 1421
0 1596 1596
0 1596 1766
0 1596 1929
0 1596 2085
0 1596 2231
0 1596 2368
0 1596 2496
0 1596 2615
0 1596 2725
0 1596 2827
0 1596 2921
0 1596 3008
0 1596 3087
0 1596 3161
0 1596 3228
0 1596 3290
0 1596 3347
0 1596 3400
0 1596 3448
0 1596 3493
0 1596 3534
0 1766 0
0 1766 50
0 1766 110
0 1766 191
0 1766 296
0 1766 421
0 1766 564
0 1766 721
0 1766 890
0 1766 1065
0 1766 1243
0 1766 1421
0 1766 1596
0 1766 1766
0 1766 1929
0 1766 2085
0 1766 2231
0 1766 2368
0 1766 2496
0 1766 2615
0 1766 2725
0 1766 2827
0 1766 2921
0 1766 3008
0 1766 3087
0 1766 3161
0 1766 3228
0 1766 3290
0 1766 3347
0 1766 3400
0 1766 3448
0 1766 3493
0 1766 3534
0 1929 0
0 1929 50
0 1929 110
0 1929 191
0 1929 296
0 1929 421
0 1929 564
0 1929 721
0 1929 890
0 1929 1065
0 1929 1243
0 1929 1421
0 1929 1596
0 1929 1766
0 1929 1929
0 1929 2085
0 1929 2231
0 1929 2368
0 1929 2496
0 1929 2615
0 1929 2725
0 1929 2827
0 1929 2921
0 1929 3008
0 1929 3087
0 1929 3161
0 1929 3228
0 1929 3290
0 1929 3347
0 1929 3400
0 1929 3448
0 1929 3493
0 1929 3534
0 2085 0
0 2085 50
0 2085 110
0 2085 191
0 2085 296
0 2085 421
0 2085 564
0 2085 721
0 2085 890
0 2085 1065
0 2085 1243
0 2085 1421
0 2085 1596
0 2085 1766
0 2085 1929
0 2085 2085
0 2085 2231
0 2085 2368
0 2085 2496
0 2085 2615
0 2085 2725
0 2085 2827
0 2085 2921
0 2085 3008
0 2085 3087
0 2085 3161
0 2085 3228
0 2085 3290
0 2085 3347
0 2085 3400
0 2085 3448
0 2085 3493
0 2085 3534
0 2231 0
0 2231 50
0 2231 110
0 2231 191
0 2231 296
0 2231 421
0 2231 564
0 2231 721
0 2231 890
0 2231 1065
0 2231 1243
0 2231 1421
0 2231 1596
0 2231 1766
0 2231 1929
0 2231 2085
0 2231 2231
0 2231 2368
0 2231 2496
0 2231 2615
0 2231 2725
0 2231 2827
0 2231 2921
0 2231 3008
0 2231 3087
0 2231 3161
0 2231 3228
0 2231 3290
0 2231 3347
0 2231 3400
0 2231 3448
0 2231 3493
0 2231 3534
0 2368 0
0 2368 50
0 2368 110
0 2368 191
0 2368 296
0 2368 421
0 2368 564
0 2368 721
0 2368 890
0 2368 1065
0 2368 1243
0 2368 1421
0 2368 1596
0 2368 1766
0 2368 1929
0 2368 2085
0 2368 2231
0 2368 2368
0 2368 2496
0 2368 2615
0 2368 2725
0 2368 2827
0 2368 2921
0 2368 3008
0 2368 3087
0 2368 3161
0 2368 3228
0 2368 3290
0 2368 3347
0 2368 3400
0 2368 3448
0 2368 3493
0 2368 3534
0 2496 0
0 2496 50
0 2496 110
0 2496 191
0 2496 296
0 2496 421
0 2496 564
0 2496 721
0 2496 890
0 2496 1065
0 2496 1243
0 2496 1421
0 2496 1596
0 2496 1766
0 2496 1929
0 2496 2085
0 2496 2231
0 2496 2368
0 2496 2496
0 2496 2615
0 2496 2725
0 2496 2827
0 2496 2921
0 2496 3008
0 2496 3087
0 2496 3161
0 2496 3228
0 2496 3290
0 2496 3347
0 2496 3400
0 2496 3448
0 2496 3493
0 2496 3534
0 2615 0
0 2615 50
0 2615 110
0 2615 191
0 2615 296
0 2615 421
0 2615 564
0 2615 721
0 2615 890
0 2615 1065
0 2615 1243
0 2615 1421
0 2615 1596
0 2615 1766
0 2615 1929
0 2615 2085
0 2615 2231
0 2615 2368
0 2615 2496
0 2615 2615
0 2615 2725
0 2615 2827
0 2615 2921
0 2615 3008
0 2615 3087
0 2615 3161
0 2615 3228
0 2615 3290
0 2615 3347
0 2615 3400
0 2615 3448
0 2615 3493
0 2615 3534
0 2725 0
0 2725 50
0 2725 110
0 2725 191
0 2725 296
0 2725 421
0 2725 564
0 2725 721
0 2725 890
0 2725 1065
0 2725 1243
0 2725 1421
0 2725 1596
0 2725 1766
0 2725 1929
0 2725 2085
0 2725 2231
0 2725 2368
0 2725 2496
0 2725 2615
0 2725 2725
0 2725 2827
0 2725 2921
0 2725 3008
0 2725 3087
0 2725 3161
0 2725 3228
0 2725 3290
0 2725 3347
0 2725 3400
0 2725 3448
0 2725 3493
0 2725 3534
0 2827 0
0 2827 50
0 2827 110
0 2827 191
0 2827 296
0 2827 421
0 2827 564
0 2827 721
0 2827 890
0 2827 1065
0 2827 1243
0 2827 1421
0 2827 1596
0 2827 1766
0 2827 1929
0 2827 2085
0 2827 2231
0 2827 2368
0 2827 2496
0 2827 2615
0 2827 2725
0 2827 2827
0 2827 2921
0 2827 3008
0 2827 3087
0 2827 3161
0 2827 3228
0 2827 3290
0 2827 3347
0 2827 3400
0 2827 3448
0 2827 3493
0 2827 3534
0 2921 0
0 2921 50
0 2921 110
0 2921 191
0 2921 296
0 2921 421
0 2921 564
0 2921 721
0 2921 890
0 2921 1065
0 2921 1243
0 2921 1421
0 2921 1596
0 2921 1766
0 2921 1929
0 2921 2085
0 2921 2231
0 2921 2368
0 2921 2496
0 2921 2615
0 2921 2725
0 2921 2827
0 2921 2921
0 2921 3008
0 2921 3087
0 2921 3161
0 2921 3228
0 2921 3290
0 2921 3347
0 2921 3400
0 2921 3448
0 2921 3493
0 2921 3534
0 3008 0
0 3008 50
0 3008 110
0 3008 191
0 3008 296
0 3008 421
0 3008 564
0 3008 721
0 3008 890
0 3008 1065
0 3008 1243
0 3008 1421
0 3008 1596
0 3008 1766
0 3008 1929
0 3008 2085
0 3008 2231
0 3008 2368
0 3008 2496
0 3008 2615
0 3008 2725
0 3008 2827
0 3008 2921
0 3008 3008
0 3008 3087
0 3008 3161
0 3008 3228
0 3008 3290
0 3008 3347
0 3008 3400
0 3008 3448
0 3008 3493
0 3008 3534
0 3087 0
0 3087 50
0 3087 110
0 3087 191
0 3087 296
0 3087 421
0 3087 564
0 3087 721
0 3087 890
0 3087 1065
0 3087 1243
0 3087 1421
0 3087 1596
0 3087 1766
0 3087 1929
0 3087 2085
0 3087 2231
0 3087 2368
0 3087 2496
0 3087 2615
0 3087 2725
0 3087 2827
0 3087 2921
0 3087 3008
0 3087 3087
0 3087 3161
0 3087 3228
0 3087 3290
0 3087 3347
0 3087 3400
0 3087 3448
0 3087 3493
0 3087 3534
0 3161 0
0 3161 50
0 3161 110
0 3161 191
0 3161 296
0 3161 421
0 3161 564
0 3161 721
0 3161 890
0 3161 1065
0 3161 1243
0 3161 1421
0 3161 1596
0 3161 1766
0 3161 1929
0 3161 2085
0 3161 2231
0 3161 2368
0 3161 2496
0 3161 2615
0 3161 2725
0 3161 2827
0 3161 2921
0 3161 3008
0 3161 3087
0 3161 3161
0 3161 3228
0 3161 3290
0 3161 3347
0 3161 3400
0 3161 3448
0 3161 3493
0 3161 3534
0 3228 0
0 3228 50
0 3228 110
0 3228 191
0 3228 296
0 3228 421
0 3228 564
0 3228 721
0 3228 890
0 3228 1065
0 3228 1243
0 3228 1421
0 3228 1596
0 3228 1766
0 3228 1929
0 3228 2085
0 3228 2231
0 3228 2368
0 3228 2496
0 3228 2615
0 3228 2725
0 3228 2827
0 3228 2921
0 3228 3008
0 3228 3087
0 3228 3161
0 3228 3228
0 3228 3290
0 3228 3347
0 3228 3400
0 3228 3448
0 3228 3493
0 3228 3534
0 3290 0
0 3290 50
0 3290 110
0 3290 191
0 3290 296
0 3290 421
0 3290 564
0 3290 721
0 3290 890
