docs/colors/media/filmic-luts/3dl/filmic_to_sRGB-Medium.3dl
3DMESH
Mesh 5 12
0 32 64 96 128 160 192 224 256 288 320 352 384 416 448 480 512 543 575 607 639 671 703 735 767 799 831 863 895 927 959 991 1023
0 0 0
0 0 145
0 0 259
0 0 388
0 0 527
0 0 674
0 0 825
0 0 977
0 0 1129
0 0 1278
0 0 1424
0 0 1566
0 0 1702
0 0 1833
0 0 1957
0 0 2075
0 0 2186
0 0 2291
0 0 2391
0 0 2484
0 0 2573
0 0 2656
0 0 2735
0 0 2808
0 0 2878
0 0 2943
0 0 3005
0 0 3063
0 0 3117
0 0 3169
0 0 3217
0 0 3263
0 0 3306
0 145 0
0 145 145
0 145 259
0 145 388
0 145 527
0 145 674
0 145 825
0 145 977
0 145 1129
0 145 1278
0 145 1424
0 145 1566
0 145 1702
0 145 1833
0 145 1957
0 145 2075
0 145 2186
0 145 2291
0 145 2391
0 145 2484
0 145 2573
0 145 2656
0 145 2735
0 145 2808
0 145 2878
0 145 2943
0 145 3005
0 145 3063
0 145 3117
0 145 3169
0 145 3217
0 145 3263
0 145 3306
0 259 0
0 259 145
0 259 259
0 259 388
0 259 527
0 259 674
0 259 825
0 259 977
0 259 1129
0 259 1278
0 259 1424
0 259 1566
0 259 1702
0 259 1833
0 259 1957
0 259 2075
0 259 2186
0 259 2291
0 259 2391
0 259 2484
0 259 2573
0 259 2656
0 259 2735
0 259 2808
0 259 2878
0 259 2943
0 259 3005
0 259 3063
0 259 3117
0 259 3169
0 259 3217
0 259 3263
0 259 3306
0 388 0
0 388 145
0 388 259
0 388 388
0 388 527
0 388 674
0 388 825
0 388 977
0 388 1129
0 388 1278
0 388 1424
0 388 1566
0 388 1702
0 388 1833
0 388 1957
0 388 2075
0 388 2186
0 388 2291
0 388 2391
0 388 2484
0 388 2573
0 388 2656
0 388 2735
0 388 2808
0 388 2878
0 388 2943
0 388 3005
0 388 3063
0 388 3117
0 388 3169
0 388 3217
0 388 3263
0 388 3306
0 527 0
0 527 145
0 527 259
0 527 388
0 527 527
0 527 674
0 527 825
0 527 977
0 527 1129
0 527 1278
0 527 1424
0 527 1566
0 527 1702
0 527 1833
0 527 1957
0 527 2075
0 527 2186
0 527 2291
0 527 2391
0 527 2484
0 527 2573
0 527 2656
0 527 2735
0 527 2808
0 527 2878
0 527 2943
0 527 3005
0 527 3063
0 527 3117
0 527 3169
0 527 3217
0 527 3263
0 527 3306
0 674 0
0 674 145
0 674 259
0 674 388
0 674 527
0 674 674
0 674 825
0 674 977
0 674 1129
0 674 1278
0 674 1424
0 674 1566
0 674 1702
0 674 1833
0 674 1957
0 674 2075
0 674 2186
0 674 2291
0 674 2391
0 674 2484
0 674 2573
0 674 2656
0 674 2735
0 674 2808
0 674 2878
0 674 2943
0 674 3005
0 674 3063
0 674 3117
0 674 3169
0 674 3217
0 674 3263
0 674 3306
0 825 0
0 825 145
0 825 259
0 825 388
0 825 527
0 825 674
0 825 825
0 825 977
0 825 1129
0 825 1278
0 825 1424
0 825 1566
0 825 1702
0 825 1833
0 825 1957
0 825 2075
0 825 2186
0 825 2291
0 825 2391
0 825 2484
0 825 2573
0 825 2656
0 825 2735
0 825 2808
0 825 2878
0 825 2943
0 825 3005
0 825 3063
0 825 3117
0 825 3169
0 825 3217
0 825 3263
0 825 3306
0 977 0
0 977 145
0 977 259
0 977 388
0 977 527
0 977 674
0 977 825
0 977 977
0 977 1129
0 977 1278
0 977 1424
0 977 1566
0 977 1702
0 977 1833
0 977 1957
0 977 2075
0 977 2186
0 977 2291
0 977 2391
0 977 2484
0 977 2573
0 977 2656
0 977 2735
0 977 2808
0 977 2878
0 977 2943
0 977 3005
0 977 3063
0 977 3117
0 977 3169
0 977 3217
0 977 3263
0 977 3306
0 1129 0
0 1129 145
0 1129 259
0 1129 388
0 1129 527
0 1129 674
0 1129 825
0 1129 977
0 1129 1129
0 1129 1278
0 1129 1424
0 1129 1566
0 1129 1702
0 1129 1833
0 1129 1957
0 1129 2075
0 1129 2186
0 1129 2291
0 1129 2391
0 1129 2484
0 1129 2573
0 1129 2656
0 1129 2735
0 1129 2808
0 1129 2878
0 1129 2943
0 1129 3005
0 1129 3063
0 1129 3117
0 1129 3169
0 1129 3217
0 1129 3263
0 1129 3306
0 1278 0
0 1278 145
0 1278 259
0 1278 388
0 1278 527
0 1278 674
0 1278 825
0 1278 977
0 1278 1129
0 1278 1278
0 1278 1424
0 1278 1566
0 1278 1702
0 1278 1833
0 1278 1957
0 1278 2075
0 1278 2186
0 1278 2291
0 1278 2391
0 1278 2484
0 1278 2573
0 1278 2656
0 1278 2735
0 1278 2808
0 1278 2878
0 1278 2943
0 1278 3005
0 1278 3063
0 1278 3117
0 1278 3169
0 1278 3217
0 1278 3263
0 1278 3306
0 1424 0
0 1424 145
0 1424 259
0 1424 388
0 1424 527
0 1424 674
0 1424 825
0 1424 977
0 1424 1129
0 1424 1278
0 1424 1424
0 1424 1566
0 1424 1702
0 1424 1833
0 1424 1957
0 1424 2075
0 1424 2186
0 1424 2291
0 1424 2391
0 1424 2484
0 1424 2573
0 1424 2656
0 1424 2735
0 1424 2808
0 1424 2878
0 1424 2943
0 1424 3005
0 1424 3063
0 1424 3117
0 1424 3169
0 1424 3217
0 1424 3263
0 1424 3306
0 1566 0
0 1566 145
0 1566 259
0 1566 388
0 1566 527
0 1566 674
0 1566 825
0 1566 977
0 1566 1129
0 1566 1278
0 1566 1424
0 1566 1566
0 1566 1702
0 1566 1833
0 1566 1957
0 1566 2075
0 1566 2186
0 1566 2291
0 1566 2391
0 1566 2484
0 1566 2573
0 1566 2656
0 1566 2735
0 1566 2808
0 1566 2878
0 1566 2943
0 1566 3005
0 1566 3063
0 1566 3117
0 1566 3169
0 1566 3217
0 1566 3263
0 1566 3306
0 1702 0
0 1702 145
0 1702 259
0 1702 388
0 1702 527
0 1702 674
0 1702 825
0 1702 977
0 1702 1129
0 1702 1278
0 1702 1424
0 1702 1566
0 1702 1702
0 1702 1833
0 1702 1957
0 1702 2075
0 1702 2186
0 1702 2291
0 1702 2391
0 1702 2484
0 1702 2573
0 1702 2656
0 1702 2735
0 1702 2808
0 1702 2878
0 1702 2943
0 1702 3005
0 1702 3063
0 1702 3117
0 1702 3169
0 1702 3217
0 1702 3263
0 1702 3306
0 1833 0
0 1833 145
0 1833 259
0 1833 388
0 1833 527
0 1833 674
0 1833 825
0 1833 977
0 1833 1129
0 1833 1278
0 1833 1424
0 1833 1566
0 1833 1702
0 1833 1833
0 1833 1957
0 1833 2075
0 1833 2186
0 1833 2291
0 1833 2391
0 1833 2484
0 1833 2573
0 1833 2656
0 1833 2735
0 1833 2808
0 1833 2878
0 1833 2943
0 1833 3005
0 1833 3063
0 1833 3117
0 1833 3169
0 1833 3217
0 1833 3263
0 1833 3306
0 1957 0
0 1957 145
0 1957 259
0 1957 388
0 1957 527
0 1957 674
0 1957 825
0 1957 977
0 1957 1129
0 1957 1278
0 1957 1424
0 1957 1566
0 1957 1702
0 1957 1833
0 1957 1957
0 1957 2075
0 1957 2186
0 1957 2291
0 1957 2391
0 1957 2484
0 1957 2573
0 1957 2656
0 1957 2735
0 1957 2808
0 1957 2878
0 1957 2943
0 1957 3005
0 1957 3063
0 1957 3117
0 1957 3169
0 1957 3217
0 1957 3263
0 1957 3306
0 2075 0
0 2075 145
0 2075 259
0 2075 388
0 2075 527
0 2075 674
0 2075 825
0 2075 977
0 2075 1129
0 2075 1278
0 2075 1424
0 2075 1566
0 2075 1702
0 2075 1833
0 2075 1957
0 2075 2075
0 2075 2186
0 2075 2291
0 2075 2391
0 2075 2484
0 2075 2573
0 2075 2656
0 2075 2735
0 2075 2808
0 2075 2878
0 2075 2943
0 2075 3005
0 2075 3063
0 2075 3117
0 2075 3169
0 2075 3217
0 2075 3263
0 2075 3306
0 2186 0
0 2186 145
0 2186 259
0 2186 388
0 2186 527
0 2186 674
0 2186 825
0 2186 977
0 2186 1129
0 2186 1278
0 2186 1424
0 2186 1566
0 2186 1702
0 2186 1833
0 2186 1957
0 2186 2075
0 2186 2186
0 2186 2291
0 2186 2391
0 2186 2484
0 2186 2573
0 2186 2656
0 2186 2735
0 2186 2808
0 2186 2878
0 2186 2943
0 2186 3005
0 2186 3063
0 2186 3117
0 2186 3169
0 2186 3217
0 2186 3263
0 2186 3306
0 2291 0
0 2291 145
0 2291 259
0 2291 388
0 2291 527
0 2291 674
0 2291 825
0 2291 977
0 2291 1129
0 2291 1278
0 2291 1424
0 2291 1566
0 2291 1702
0 2291 1833
0 2291 1957
0 2291 2075
0 2291 2186
0 2291 2291
0 2291 2391
0 2291 2484
0 2291 2573
0 2291 2656
0 2291 2735
0 2291 2808
0 2291 2878
0 2291 2943
0 2291 3005
0 2291 3063
0 2291 3117
0 2291 3169
0 2291 3217
0 2291 3263
0 2291 3306
0 2391 0
0 2391 145
0 2391 259
0 2391 388
0 2391 527
0 2391 674
0 2391 825
0 2391 977
0 2391 1129
0 2391 1278
0 2391 1424
0 2391 1566
0 2391 1702
0 2391 1833
0 2391 1957
0 2391 2075
0 2391 2186
0 2391 2291
0 2391 2391
0 2391 2484
0 2391 2573
0 2391 2656
0 2391 2735
0 2391 2808
0 2391 2878
0 2391 2943
0 2391 3005
0 2391 3063
0 2391 3117
0 2391 3169
0 2391 3217
0 2391 3263
0 2391 3306
0 2484 0
0 2484 145
0 2484 259
0 2484 388
0 2484 527
0 2484 674
0 2484 825
0 2484 977
0 2484 1129
0 2484 1278
0 2484 1424
0 2484 1566
0 2484 1702
0 2484 1833
0 2484 1957
0 2484 2075
0 2484 2186
0 2484 2291
0 2484 2391
0 2484 2484
0 2484 2573
0 2484 2656
0 2484 2735
0 2484 2808
0 2484 2878
0 2484 2943
0 2484 3005
0 2484 3063
0 2484 3117
0 2484 3169
0 2484 3217
0 2484 3263
0 2484 3306
0 2573 0
0 2573 145
0 2573 259
0 2573 388
0 2573 527
0 2573 674
0 2573 825
0 2573 977
0 2573 1129
0 2573 1278
0 2573 1424
0 2573 1566
0 2573 1702
0 2573 1833
0 2573 1957
0 2573 2075
0 2573 2186
0 2573 2291
0 2573 2391
0 2573 2484
0 2573 2573
0 2573 2656
0 2573 2735
0 2573 2808
0 2573 2878
0 2573 2943
0 2573 3005
0 2573 3063
0 2573 3117
0 2573 3169
0 2573 3217
0 2573 3263
0 2573 3306
0 2656 0
0 2656 145
0 2656 259
0 2656 388
0 2656 527
0 2656 674
0 2656 825
0 2656 977
0 2656 1129
0 2656 1278
0 2656 1424
0 2656 1566
0 2656 1702
0 2656 1833
0 2656 1957
0 2656 2075
0 2656 2186
0 2656 2291
0 2656 2391
0 2656 2484
0 2656 2573
0 2656 2656
0 2656 2735
0 2656 2808
0 2656 2878
0 2656 2943
0 2656 3005
0 2656 3063
0 2656 3117
0 2656 3169
0 2656 3217
0 2656 3263
0 2656 3306
0 2735 0
0 2735 145
0 2735 259
0 2735 388
0 2735 527
0 2735 674
0 2735 825
0 2735 977
0 2735 1129
0 2735 1278
0 2735 1424
0 2735 1566
0 2735 1702
0 2735 1833
0 2735 1957
0 2735 2075
0 2735 2186
0 2735 2291
0 2735 2391
0 2735 2484
0 2735 2573
0 2735 2656
0 2735 2735
0 2735 2808
0 2735 2878
0 2735 2943
0 2735 3005
0 2735 3063
0 2735 3117
0 2735 3169
0 2735 3217
0 2735 3263
0 2735 3306
0 2808 0
0 2808 145
0 2808 259
0 2808 388
0 2808 527
0 2808 674
0 2808 825
0 2808 977
0 2808 1129
0 2808 1278
0 2808 1424
0 2808 1566
0 2808 1702
0 2808 1833
0 2808 1957
0 2808 2075
0 2808 2186
0 2808 2291
0 2808 2391
0 2808 2484
0 2808 2573
0 2808 2656
0 2808 2735
0 2808 2808
0 2808 2878
0 2808 2943
0 2808 3005
0 2808 3063
0 2808 3117
0 2808 3169
0 2808 3217
0 2808 3263
0 2808 3306
0 2878 0
0 2878 145
0 2878 259
0 2878 388
0 2878 527
0 2878 674
0 2878 825
0 2878 977
0 2878 1129
0 2878 1278
0 2878 1424
0 2878 1566
0 2878 1702
0 2878 1833
0 2878 1957
0 2878 2075
0 2878 2186
0 2878 2291
0 2878 2391
0 2878 2484
0 2878 2573
0 2878 2656
0 2878 2735
0 2878 2808
0 2878 2878
0 2878 2943
0 2878 3005
0 2878 3063
0 2878 3117
0 2878 3169
0 2878 3217
0 2878 3263
0 2878 3306
0 2943 0
0 2943 145
0 2943 259
0 2943 388
0 2943 527
0 2943 674
0 2943 825
0 2943 977
0 2943 1129
0 2943 1278
0 2943 1424
0 2943 1566
0 2943 1702
0 2943 1833
0 2943 1957
0 2943 2075
0 2943 2186
0 2943 2291
0 2943 2391
0 2943 2484
0 2943 2573
0 2943 2656
0 2943 2735
0 2943 2808
0 2943 2878
0 2943 2943
0 2943 3005
0 2943 3063
0 2943 3117
0 2943 3169
0 2943 3217
0 2943 3263
0 2943 3306
0 3005 0
0 3005 145
0 3005 259
0 3005 388
0 3005 527
0 3005 674
0 3005 825
0 3005 977
0 3005 1129
0 3005 1278
0 3005 1424
0 3005 1566
0 3005 1702
0 3005 1833
0 3005 1957
0 3005 2075
0 3005 2186
0 3005 2291
0 3005 2391
0 3005 2484
0 3005 2573
0 3005 2656
0 3005 2735
0 3005 2808
0 3005 2878
0 3005 2943
0 3005 3005
0 3005 3063
0 3005 3117
0 3005 3169
0 3005 3217
0 3005 3263
0 3005 3306
0 3063 0
0 3063 145
0 3063 259
0 3063 388
0 3063 527
0 3063 674
0 3063 825
0 3063 977
0 3063 1129
