docs/colors/media/filmic-luts/3dl/filmic_to_sRGB-MediumLow.3dl
3DMESH
Mesh 5 12
0 32 64 96 128 160 192 224 256 288 320 352 384 416 448 480 512 543 575 607 639 671 703 735 767 799 831 863 895 927 959 991 1023
0 0 0
0 0 203
0 0 340
0 0 483
0 0 631
0 0 781
0 0 929
0 0 1075
0 0 1218
0 0 1356
0 0 1489
0 0 1617
0 0 1739
0 0 1856
0 0 1967
0 0 2072
0 0 2170
0 0 2263
0 0 2351
0 0 2435
0 0 2514
0 0 2589
0 0 2660
0 0 2728
0 0 2791
0 0 2852
0 0 2909
0 0 2964
0 0 3015
0 0 3064
0 0 3111
0 0 3155
0 0 3197
0 203 0
0 203 203
0 203 340
0 203 483
0 203 631
0 203 781
0 203 929
0 203 1075
0 203 1218
0 203 1356
0 203 1489
0 203 1617
0 203 1739
0 203 1856
0 203 1967
0 203 2072
0 203 2170
0 203 2263
0 203 2351
0 203 2435
0 203 2514
0 203 2589
0 203 2660
0 203 2728
0 203 2791
0 203 2852
0 203 2909
0 203 2964
0 203 3015
0 203 3064
0 203 3111
0 203 3155
0 203 3197
0 340 0
0 340 203
0 340 340
0 340 483
0 340 631
0 340 781
0 340 929
0 340 1075
0 340 1218
0 340 1356
0 340 1489
0 340 1617
0 340 1739
0 340 1856
0 340 1967
0 340 2072
0 340 2170
0 340 2263
0 340 2351
0 340 2435
0 340 2514
0 340 2589
0 340 2660
0 340 2728
0 340 2791
0 340 2852
0 340 2909
0 340 2964
0 340 3015
0 340 3064
0 340 3111
0 340 3155
0 340 3197
0 483 0
0 483 203
0 483 340
0 483 483
0 483 631
0 483 781
0 483 929
0 483 1075
0 483 1218
0 483 1356
0 483 1489
0 483 1617
0 483 1739
0 483 1856
0 483 1967
0 483 2072
0 483 2170
0 483 2263
0 483 2351
0 483 2435
0 483 2514
0 483 2589
0 483 2660
0 483 2728
0 483 2791
0 483 2852
0 483 2909
0 483 2964
0 483 3015
0 483 3064
0 483 3111
0 483 3155
0 483 3197
0 631 0
0 631 203
0 631 340
0 631 483
0 631 631
0 631 781
0 631 929
0 631 1075
0 631 1218
0 631 1356
0 631 1489
0 631 1617
0 631 1739
0 631 1856
0 631 1967
0 631 2072
0 631 2170
0 631 2263
0 631 2351
0 631 2435
0 631 2514
0 631 2589
0 631 2660
0 631 2728
0 631 2791
0 631 2852
0 631 2909
0 631 2964
0 631 3015
0 631 3064
0 631 3111
0 631 3155
0 631 3197
0 781 0
0 781 203
0 781 340
0 781 483
0 781 631
0 781 781
0 781 929
0 781 1075
0 781 1218
0 781 1356
0 781 1489
0 781 1617
0 781 1739
0 781 1856
0 781 1967
0 781 2072
0 781 2170
0 781 2263
0 781 2351
0 781 2435
0 781 2514
0 781 2589
0 781 2660
0 781 2728
0 781 2791
0 781 2852
0 781 2909
0 781 2964
0 781 3015
0 781 3064
0 781 3111
0 781 3155
0 781 3197
0 929 0
0 929 203
0 929 340
0 929 483
0 929 631
0 929 781
0 929 929
0 929 1075
0 929 1218
0 929 1356
0 929 1489
0 929 1617
0 929 1739
0 929 1856
0 929 1967
0 929 2072
0 929 2170
0 929 2263
0 929 2351
0 929 2435
0 929 2514
0 929 2589
0 929 2660
0 929 2728
0 929 2791
0 929 2852
0 929 2909
0 929 2964
0 929 3015
0 929 3064
0 929 3111
0 929 3155
0 929 3197
0 1075 0
0 1075 203
0 1075 340
0 1075 483
0 1075 631
0 1075 781
0 1075 929
0 1075 1075
0 1075 1218
0 1075 1356
0 1075 1489
0 1075 1617
0 1075 1739
0 1075 1856
0 1075 1967
0 1075 2072
0 1075 2170
0 1075 2263
0 1075 2351
0 1075 2435
0 1075 2514
0 1075 2589
0 1075 2660
0 1075 2728
0 1075 2791
0 1075 2852
0 1075 2909
0 1075 2964
0 1075 3015
0 1075 3064
0 1075 3111
0 1075 3155
0 1075 3197
0 1218 0
0 1218 203
0 1218 340
0 1218 483
0 1218 631
0 1218 781
0 1218 929
0 1218 1075
0 1218 1218
0 1218 1356
0 1218 1489
0 1218 1617
0 1218 1739
0 1218 1856
0 1218 1967
0 1218 2072
0 1218 2170
0 1218 2263
0 1218 2351
0 1218 2435
0 1218 2514
0 1218 2589
0 1218 2660
0 1218 2728
0 1218 2791
0 1218 2852
0 1218 2909
0 1218 2964
0 1218 3015
0 1218 3064
0 1218 3111
0 1218 3155
0 1218 3197
0 1356 0
0 1356 203
0 1356 340
0 1356 483
0 1356 631
0 1356 781
0 1356 929
0 1356 1075
0 1356 1218
0 1356 1356
0 1356 1489
0 1356 1617
0 1356 1739
0 1356 1856
0 1356 1967
0 1356 2072
0 1356 2170
0 1356 2263
0 1356 2351
0 1356 2435
0 1356 2514
0 1356 2589
0 1356 2660
0 1356 2728
0 1356 2791
0 1356 2852
0 1356 2909
0 1356 2964
0 1356 3015
0 1356 3064
0 1356 3111
0 1356 3155
0 1356 3197
0 1489 0
0 1489 203
0 1489 340
0 1489 483
0 1489 631
0 1489 781
0 1489 929
0 1489 1075
0 1489 1218
0 1489 1356
0 1489 1489
0 1489 1617
0 1489 1739
0 1489 1856
0 1489 1967
0 1489 2072
0 1489 2170
0 1489 2263
0 1489 2351
0 1489 2435
0 1489 2514
0 1489 2589
0 1489 2660
0 1489 2728
0 1489 2791
0 1489 2852
0 1489 2909
0 1489 2964
0 1489 3015
0 1489 3064
0 1489 3111
0 1489 3155
0 1489 3197
0 1617 0
0 1617 203
0 1617 340
0 1617 483
0 1617 631
0 1617 781
0 1617 929
0 1617 1075
0 1617 1218
0 1617 1356
0 1617 1489
0 1617 1617
0 1617 1739
0 1617 1856
0 1617 1967
0 1617 2072
0 1617 2170
0 1617 2263
0 1617 2351
0 1617 2435
0 1617 2514
0 1617 2589
0 1617 2660
0 1617 2728
0 1617 2791
0 1617 2852
0 1617 2909
0 1617 2964
0 1617 3015
0 1617 3064
0 1617 3111
0 1617 3155
0 1617 3197
0 1739 0
0 1739 203
0 1739 340
0 1739 483
0 1739 631
0 1739 781
0 1739 929
0 1739 1075
0 1739 1218
0 1739 1356
0 1739 1489
0 1739 1617
0 1739 1739
0 1739 1856
0 1739 1967
0 1739 2072
0 1739 2170
0 1739 2263
0 1739 2351
0 1739 2435
0 1739 2514
0 1739 2589
0 1739 2660
0 1739 2728
0 1739 2791
0 1739 2852
0 1739 2909
0 1739 2964
0 1739 3015
0 1739 3064
0 1739 3111
0 1739 3155
0 1739 3197
0 1856 0
0 1856 203
0 1856 340
0 1856 483
0 1856 631
0 1856 781
0 1856 929
0 1856 1075
0 1856 1218
0 1856 1356
0 1856 1489
0 1856 1617
0 1856 1739
0 1856 1856
0 1856 1967
0 1856 2072
0 1856 2170
0 1856 2263
0 1856 2351
0 1856 2435
0 1856 2514
0 1856 2589
0 1856 2660
0 1856 2728
0 1856 2791
0 1856 2852
0 1856 2909
0 1856 2964
0 1856 3015
0 1856 3064
0 1856 3111
0 1856 3155
0 1856 3197
0 1967 0
0 1967 203
0 1967 340
0 1967 483
0 1967 631
0 1967 781
0 1967 929
0 1967 1075
0 1967 1218
0 1967 1356
0 1967 1489
0 1967 1617
0 1967 1739
0 1967 1856
0 1967 1967
0 1967 2072
0 1967 2170
0 1967 2263
0 1967 2351
0 1967 2435
0 1967 2514
0 1967 2589
0 1967 2660
0 1967 2728
0 1967 2791
0 1967 2852
0 1967 2909
0 1967 2964
0 1967 3015
0 1967 3064
0 1967 3111
0 1967 3155
0 1967 3197
0 2072 0
0 2072 203
0 2072 340
0 2072 483
0 2072 631
0 2072 781
0 2072 929
0 2072 1075
0 2072 1218
0 2072 1356
0 2072 1489
0 2072 1617
0 2072 1739
0 2072 1856
0 2072 1967
0 2072 2072
0 2072 2170
0 2072 2263
0 2072 2351
0 2072 2435
0 2072 2514
0 2072 2589
0 2072 2660
0 2072 2728
0 2072 2791
0 2072 2852
0 2072 2909
0 2072 2964
0 2072 3015
0 2072 3064
0 2072 3111
0 2072 3155
0 2072 3197
0 2170 0
0 2170 203
0 2170 340
0 2170 483
0 2170 631
0 2170 781
0 2170 929
0 2170 1075
0 2170 1218
0 2170 1356
0 2170 1489
0 2170 1617
0 2170 1739
0 2170 1856
0 2170 1967
0 2170 2072
0 2170 2170
0 2170 2263
0 2170 2351
0 2170 2435
0 2170 2514
0 2170 2589
0 2170 2660
0 2170 2728
0 2170 2791
0 2170 2852
0 2170 2909
0 2170 2964
0 2170 3015
0 2170 3064
0 2170 3111
0 2170 3155
0 2170 3197
0 2263 0
0 2263 203
0 2263 340
0 2263 483
0 2263 631
0 2263 781
0 2263 929
0 2263 1075
0 2263 1218
0 2263 1356
0 2263 1489
0 2263 1617
0 2263 1739
0 2263 1856
0 2263 1967
0 2263 2072
0 2263 2170
0 2263 2263
0 2263 2351
0 2263 2435
0 2263 2514
0 2263 2589
0 2263 2660
0 2263 2728
0 2263 2791
0 2263 2852
0 2263 2909
0 2263 2964
0 2263 3015
0 2263 3064
0 2263 3111
0 2263 3155
0 2263 3197
0 2351 0
0 2351 203
0 2351 340
0 2351 483
0 2351 631
0 2351 781
0 2351 929
0 2351 1075
0 2351 1218
0 2351 1356
0 2351 1489
0 2351 1617
0 2351 1739
0 2351 1856
0 2351 1967
0 2351 2072
0 2351 2170
0 2351 2263
0 2351 2351
0 2351 2435
0 2351 2514
0 2351 2589
0 2351 2660
0 2351 2728
0 2351 2791
0 2351 2852
0 2351 2909
0 2351 2964
0 2351 3015
0 2351 3064
0 2351 3111
0 2351 3155
0 2351 3197
0 2435 0
0 2435 203
0 2435 340
0 2435 483
0 2435 631
0 2435 781
0 2435 929
0 2435 1075
0 2435 1218
0 2435 1356
0 2435 1489
0 2435 1617
0 2435 1739
0 2435 1856
0 2435 1967
0 2435 2072
0 2435 2170
0 2435 2263
0 2435 2351
0 2435 2435
0 2435 2514
0 2435 2589
0 2435 2660
0 2435 2728
0 2435 2791
0 2435 2852
0 2435 2909
0 2435 2964
0 2435 3015
0 2435 3064
0 2435 3111
0 2435 3155
0 2435 3197
0 2514 0
0 2514 203
0 2514 340
0 2514 483
0 2514 631
0 2514 781
0 2514 929
0 2514 1075
0 2514 1218
0 2514 1356
0 2514 1489
0 2514 1617
0 2514 1739
0 2514 1856
0 2514 1967
0 2514 2072
0 2514 2170
0 2514 2263
0 2514 2351
0 2514 2435
0 2514 2514
0 2514 2589
0 2514 2660
0 2514 2728
0 2514 2791
0 2514 2852
0 2514 2909
0 2514 2964
0 2514 3015
0 2514 3064
0 2514 3111
0 2514 3155
0 2514 3197
0 2589 0
0 2589 203
0 2589 340
0 2589 483
0 2589 631
0 2589 781
0 2589 929
0 2589 1075
0 2589 1218
0 2589 1356
0 2589 1489
0 2589 1617
0 2589 1739
0 2589 1856
0 2589 1967
0 2589 2072
0 2589 2170
0 2589 2263
0 2589 2351
0 2589 2435
0 2589 2514
0 2589 2589
0 2589 2660
0 2589 2728
0 2589 2791
0 2589 2852
0 2589 2909
0 2589 2964
0 2589 3015
0 2589 3064
0 2589 3111
0 2589 3155
0 2589 3197
0 2660 0
0 2660 203
0 2660 340
0 2660 483
0 2660 631
0 2660 781
0 2660 929
0 2660 1075
0 2660 1218
0 2660 1356
0 2660 1489
0 2660 1617
0 2660 1739
0 2660 1856
0 2660 1967
0 2660 2072
0 2660 2170
0 2660 2263
0 2660 2351
0 2660 2435
0 2660 2514
0 2660 2589
0 2660 2660
0 2660 2728
0 2660 2791
0 2660 2852
0 2660 2909
0 2660 2964
0 2660 3015
0 2660 3064
0 2660 3111
0 2660 3155
0 2660 3197
0 2728 0
0 2728 203
0 2728 340
0 2728 483
0 2728 631
0 2728 781
0 2728 929
0 2728 1075
0 2728 1218
0 2728 1356
0 2728 1489
0 2728 1617
0 2728 1739
0 2728 1856
0 2728 1967
0 2728 2072
0 2728 2170
0 2728 2263
0 2728 2351
0 2728 2435
0 2728 2514
0 2728 2589
0 2728 2660
0 2728 2728
0 2728 2791
0 2728 2852
0 2728 2909
0 2728 2964
0 2728 3015
0 2728 3064
0 2728 3111
0 2728 3155
0 2728 3197
0 2791 0
0 2791 203
0 2791 340
0 2791 483
0 2791 631
0 2791 781
0 2791 929
0 2791 1075
0 2791 1218
0 2791 1356
0 2791 1489
0 2791 1617
0 2791 1739
0 2791 1856
0 2791 1967
0 2791 2072
0 2791 2170
0 2791 2263
0 2791 2351
0 2791 2435
0 2791 2514
0 2791 2589
0 2791 2660
0 2791 2728
0 2791 2791
0 2791 2852
0 2791 2909
0 2791 2964
0 2791 3015
0 2791 3064
0 2791 3111
0 2791 3155
0 2791 3197
0 2852 0
0 2852 203
0 2852 340
0 2852 483
0 2852 631
0 2852 781
0 2852 929
0 2852 1075
0 2852 1218
0 2852 1356
0 2852 1489
0 2852 1617
0 2852 1739
0 2852 1856
0 2852 1967
0 2852 2072
0 2852 2170
0 2852 2263
0 2852 2351
0 2852 2435
0 2852 2514
0 2852 2589
0 2852 2660
0 2852 2728
0 2852 2791
0 2852 2852
0 2852 2909
0 2852 2964
0 2852 3015
0 2852 3064
0 2852 3111
0 2852 3155
0 2852 3197
0 2909 0
0 2909 203
0 2909 340
0 2909 483
0 2909 631
0 2909 781
0 2909 929
0 2909 1075
0 2909 1218
0 2909 1356
0 2909 1489
0 2909 1617
0 2909 1739
0 2909 1856
0 2909 1967
0 2909 2072
0 2909 2170
0 2909 2263
0 2909 2351
0 2909 2435
0 2909 2514
0 2909 2589
0 2909 2660
0 2909 2728
0 2909 2791
0 2909 2852
0 2909 2909
0 2909 2964
0 2909 3015
0 2909 3064
0 2909 3111
0 2909 3155
0 2909 3197
0 2964 0
0 2964 203
0 2964 340
0 2964 483
0 2964 631
0 2964 781
0 2964 929
0 2964 1075
0 2964 1218
